G90
G21
(VCarve.To...)
M05
M0 ;T301
M03S20000
G0X17.815Y-0.548Z12.700
G1Z-1.016F2032.0
X17.804Y0.147F4064.0
X17.778Y0.668
X17.709Y1.460
X17.584Y2.351
X17.433Y3.128
X17.221Y3.994
X16.976Y4.810
X16.691Y5.617
X16.365Y6.414
X15.998Y7.203
X15.603Y7.960
X15.157Y8.725
X14.517Y9.697
X13.952Y10.462
X13.465Y11.064
X12.827Y11.783
X12.220Y12.404
X11.595Y12.990
X10.760Y13.695
X10.041Y14.241
X9.296Y14.753
X8.443Y15.278
X7.659Y15.707
X6.848Y16.100
X6.045Y16.443
X5.137Y16.778
X4.271Y17.048
X3.313Y17.291
X2.444Y17.465
X1.461Y17.610
X0.563Y17.694
X-0.061Y17.728
X-1.043Y17.738
X-1.897Y17.702
X-2.749Y17.623
X-3.597Y17.502
X-4.437Y17.340
X-5.174Y17.163
X-6.091Y16.894
X-6.901Y16.611
X-7.638Y16.317
X-8.041Y16.137
X-8.835Y15.752
X-9.622Y15.325
X-10.361Y14.875
X-11.087Y14.386
X-11.769Y13.878
X-12.470Y13.305
X-13.122Y12.717
X-13.644Y12.204
X-14.047Y11.778
X-14.543Y11.219
X-15.134Y10.485
X-15.652Y9.774
X-16.176Y8.973
X-16.583Y8.282
X-16.996Y7.498
X-17.409Y6.605
X-17.743Y5.772
X-17.996Y5.044
X-18.285Y4.048
X-18.491Y3.156
X-18.652Y2.249
X-18.766Y1.326
X-18.824Y0.545
X-18.848Y-0.349
X-18.837Y-1.505
X-18.783Y-2.446
X-18.674Y-3.416
X-18.529Y-4.281
X-18.336Y-5.156
X-18.119Y-5.954
X-17.821Y-6.862
X-17.506Y-7.681
X-17.191Y-8.396
X-16.757Y-9.266
X-16.325Y-10.031
X-15.908Y-10.695
X-15.408Y-11.418
X-14.874Y-12.117
X-14.243Y-12.862
X-13.637Y-13.508
X-13.068Y-14.062
X-12.404Y-14.652
X-11.634Y-15.269
X-10.908Y-15.793
X-10.153Y-16.285
X-9.372Y-16.741
X-8.588Y-17.148
X-7.806Y-17.509
X-6.950Y-17.854
X-6.034Y-18.170
X-5.188Y-18.414
X-4.265Y-18.631
X-3.764Y-18.727
X-2.877Y-18.864
X-1.870Y-18.966
X-1.030Y-19.009
X-0.068Y-19.012
X0.503Y-18.989
X1.359Y-18.922
X2.324Y-18.796
X3.204Y-18.635
X4.099Y-18.424
X4.978Y-18.170
X5.832Y-17.876
X6.668Y-17.541
X7.479Y-17.169
X8.270Y-16.758
X9.028Y-16.317
X9.793Y-15.822
X10.495Y-15.317
X11.183Y-14.772
X11.989Y-14.061
X12.644Y-13.417
X13.237Y-12.775
X13.653Y-12.285
X14.195Y-11.592
X14.703Y-10.874
X15.189Y-10.110
X15.627Y-9.342
X16.018Y-8.571
X16.439Y-7.622
X16.709Y-6.922
X16.997Y-6.064
X17.218Y-5.285
X17.439Y-4.334
X17.607Y-3.386
X17.726Y-2.421
X17.800Y-1.347
X17.815Y-0.548
Z12.700
G0
G1Z-2.032F2032.0
X17.804Y0.147F4064.0
X17.778Y0.668
X17.709Y1.460
X17.584Y2.351
X17.433Y3.128
X17.221Y3.994
X16.976Y4.810
X16.691Y5.617Z-2.031
X16.365Y6.414Z-2.029
X15.998Y7.203
X15.603Y7.960
X15.157Y8.725
X14.517Y9.697Z-2.028
X13.952Y10.462Z-2.029
X13.465Y11.064Z-2.030
X12.827Y11.783
X12.220Y12.404
X11.595Y12.990
X10.760Y13.695Z-2.032
X10.041Y14.241Z-2.031
X9.296Y14.753Z-2.030
X8.443Y15.278Z-2.026
X7.659Y15.707Z-2.024
X6.848Y16.100Z-2.022
X6.045Y16.443Z-2.020
X5.137Y16.778Z-2.016
X4.271Y17.048Z-2.014
X3.313Y17.291Z-2.010
X2.444Y17.465Z-2.008
X1.461Y17.610Z-2.005
X0.563Y17.694Z-2.003
X-0.061Y17.728
X-1.043Y17.738
X-1.897Y17.702Z-2.004
X-2.749Y17.623Z-2.008
X-3.597Y17.502Z-2.013
X-4.437Y17.340Z-2.020
X-5.174Y17.163Z-2.026
X-6.091Y16.894Z-2.032
X-6.901Y16.611
X-7.638Y16.317
X-8.041Y16.137
X-8.835Y15.752
X-9.622Y15.325
X-10.361Y14.875
X-11.087Y14.386
X-11.769Y13.878
X-12.470Y13.305
X-13.122Y12.717
X-13.644Y12.204
X-14.047Y11.778
X-14.543Y11.219
X-15.134Y10.485Z-2.029
X-15.652Y9.774Z-2.022
X-16.176Y8.973Z-2.016
X-16.583Y8.282Z-2.009
X-16.996Y7.498Z-2.003
X-17.409Y6.605Z-1.997
X-17.743Y5.772Z-1.993
X-17.996Y5.044Z-1.989
X-18.285Y4.048Z-1.987
X-18.491Y3.156Z-1.986
X-18.652Y2.249Z-1.988
X-18.766Y1.326Z-1.992
X-18.824Y0.545Z-1.995
X-18.848Y-0.349Z-2.002
X-18.837Y-1.505Z-1.990
X-18.783Y-2.446Z-1.974
X-18.674Y-3.416Z-1.959
X-18.529Y-4.281Z-1.951
X-18.336Y-5.156Z-1.944
X-18.119Y-5.954Z-1.939
X-17.821Y-6.862Z-1.937
X-17.506Y-7.681Z-1.936
X-17.191Y-8.396
X-16.757Y-9.266Z-1.938
X-16.325Y-10.031Z-1.940
X-15.908Y-10.695Z-1.942
X-15.408Y-11.418Z-1.945
X-14.874Y-12.117Z-1.948
X-14.243Y-12.862Z-1.952
X-13.637Y-13.508Z-1.955
X-13.068Y-14.062Z-1.957
X-12.404Y-14.652Z-1.960
X-11.634Y-15.269Z-1.963
X-10.908Y-15.793Z-1.965
X-10.153Y-16.285Z-1.966
X-9.372Y-16.741Z-1.967
X-8.588Y-17.148Z-1.968
X-7.806Y-17.509Z-1.967
X-6.950Y-17.854
X-6.034Y-18.170Z-1.965
X-5.188Y-18.414Z-1.964
X-4.265Y-18.631Z-1.962
X-3.764Y-18.727Z-1.961
X-2.877Y-18.864Z-1.958
X-1.870Y-18.966Z-1.955
X-1.030Y-19.009Z-1.952
X-0.068Y-19.012Z-1.950
X0.503Y-18.989Z-1.949
X1.359Y-18.922Z-1.951
X2.324Y-18.796Z-1.955
X3.204Y-18.635Z-1.962
X4.099Y-18.424Z-1.969
X4.978Y-18.170Z-1.976
X5.832Y-17.876Z-1.984
X6.668Y-17.541Z-1.993
X7.479Y-17.169Z-2.000
X8.270Y-16.758Z-2.009
X9.028Y-16.317Z-2.015
X9.793Y-15.822Z-2.022
X10.495Y-15.317Z-2.028
X11.183Y-14.772Z-2.032
X11.989Y-14.061
X12.644Y-13.417
X13.237Y-12.775
X13.653Y-12.285
X14.195Y-11.592
X14.703Y-10.874
X15.189Y-10.110
X15.627Y-9.342
X16.018Y-8.571
X16.439Y-7.622
X16.709Y-6.922
X16.997Y-6.064
X17.218Y-5.285
X17.439Y-4.334
X17.607Y-3.386
X17.726Y-2.421
X17.800Y-1.347
X17.815Y-0.548
Z12.700
G0
G1Z-2.044F2032.0
X17.804Y0.147Z-2.047F4064.0
X17.778Y0.668Z-2.048
X17.709Y1.460Z-2.044
X17.584Y2.351Z-2.040
X17.433Y3.128Z-2.037
X17.221Y3.994Z-2.035
X16.976Y4.810Z-2.032
X16.691Y5.617Z-2.031
X16.365Y6.414Z-2.029
X15.998Y7.203
X15.603Y7.960
X15.157Y8.725
X14.517Y9.697Z-2.028
X13.952Y10.462Z-2.029
X13.465Y11.064Z-2.030
X12.827Y11.783
X12.220Y12.404
X11.595Y12.990
X10.760Y13.695Z-2.032
X10.041Y14.241Z-2.031
X9.296Y14.753Z-2.030
X8.443Y15.278Z-2.026
X7.659Y15.707Z-2.024
X6.848Y16.100Z-2.022
X6.045Y16.443Z-2.020
X5.137Y16.778Z-2.016
X4.271Y17.048Z-2.014
X3.313Y17.291Z-2.010
X2.444Y17.465Z-2.008
X1.461Y17.610Z-2.005
X0.563Y17.694Z-2.003
X-0.061Y17.728
X-1.043Y17.738
X-1.897Y17.702Z-2.004
X-2.749Y17.623Z-2.008
X-3.597Y17.502Z-2.013
X-4.437Y17.340Z-2.020
X-5.174Y17.163Z-2.026
X-6.091Y16.894Z-2.033
X-6.901Y16.611Z-2.039
X-7.638Y16.317Z-2.044
X-8.041Y16.137Z-2.049
X-8.835Y15.752Z-2.053
X-9.622Y15.325Z-2.054
X-10.361Y14.875Z-2.055
X-11.087Y14.386Z-2.056
X-11.769Y13.878Z-2.054
X-12.470Y13.305Z-2.053
X-13.122Y12.717Z-2.049
X-13.644Y12.204Z-2.044
X-14.047Y11.778Z-2.043
X-14.543Y11.219Z-2.036
X-15.134Y10.485Z-2.029
X-15.652Y9.774Z-2.022
X-16.176Y8.973Z-2.016
X-16.583Y8.282Z-2.009
X-16.996Y7.498Z-2.003
X-17.409Y6.605Z-1.997
X-17.743Y5.772Z-1.993
X-17.996Y5.044Z-1.989
X-18.285Y4.048Z-1.987
X-18.491Y3.156Z-1.986
X-18.652Y2.249Z-1.988
X-18.766Y1.326Z-1.992
X-18.824Y0.545Z-1.995
X-18.848Y-0.349Z-2.002
X-18.837Y-1.505Z-1.990
X-18.783Y-2.446Z-1.974
X-18.674Y-3.416Z-1.959
X-18.529Y-4.281Z-1.951
X-18.336Y-5.156Z-1.944
X-18.119Y-5.954Z-1.939
X-17.821Y-6.862Z-1.937
X-17.506Y-7.681Z-1.936
X-17.191Y-8.396
X-16.757Y-9.266Z-1.938
X-16.325Y-10.031Z-1.940
X-15.908Y-10.695Z-1.942
X-15.408Y-11.418Z-1.945
X-14.874Y-12.117Z-1.948
X-14.243Y-12.862Z-1.952
X-13.637Y-13.508Z-1.955
X-13.068Y-14.062Z-1.957
X-12.404Y-14.652Z-1.960
X-11.634Y-15.269Z-1.963
X-10.908Y-15.793Z-1.965
X-10.153Y-16.285Z-1.966
X-9.372Y-16.741Z-1.967
X-8.588Y-17.148Z-1.968
X-7.806Y-17.509Z-1.967
X-6.950Y-17.854
X-6.034Y-18.170Z-1.965
X-5.188Y-18.414Z-1.964
X-4.265Y-18.631Z-1.962
X-3.764Y-18.727Z-1.961
X-2.877Y-18.864Z-1.958
X-1.870Y-18.966Z-1.955
X-1.030Y-19.009Z-1.952
X-0.068Y-19.012Z-1.950
X0.503Y-18.989Z-1.949
X1.359Y-18.922Z-1.951
X2.324Y-18.796Z-1.955
X3.204Y-18.635Z-1.962
X4.099Y-18.424Z-1.969
X4.978Y-18.170Z-1.976
X5.832Y-17.876Z-1.984
X6.668Y-17.541Z-1.993
X7.479Y-17.169Z-2.000
X8.270Y-16.758Z-2.009
X9.028Y-16.317Z-2.015
X9.793Y-15.822Z-2.022
X10.495Y-15.317Z-2.028
X11.183Y-14.772Z-2.033
X11.989Y-14.061Z-2.036
X12.644Y-13.417Z-2.040
X13.237Y-12.775Z-2.042
X13.653Y-12.285Z-2.045
X14.195Y-11.592Z-2.046
X14.703Y-10.874
X15.189Y-10.110
X15.627Y-9.342
X16.018Y-8.571
X16.439Y-7.622Z-2.045
X16.709Y-6.922
X16.997Y-6.064Z-2.044
X17.218Y-5.285Z-2.043
X17.439Y-4.334
X17.607Y-3.386
X17.726Y-2.421
X17.800Y-1.347
X17.815Y-0.548Z-2.045
Z12.700
G0X-1.326Y-43.165
G1Z-0.106F2032.0
X-1.406Y-43.043Z-0.222F4064.0
X-1.482Y-42.855Z-0.405
X-1.621Y-42.275Z-0.975
X-1.743Y-41.427Z-1.016
X-1.849Y-40.309
X-3.077Y-40.255
X-3.942Y-40.191
X-5.313Y-40.050
X-6.285Y-39.918
X-7.460Y-39.723
X-8.106Y-39.598
X-9.004Y-39.408
X-9.891Y-39.194
X-10.767Y-38.961
X-11.633Y-38.709
X-12.800Y-38.333
X-13.749Y-37.996
X-14.834Y-37.576
X-15.771Y-37.184
X-16.641Y-36.794
X-17.446Y-36.410
X-18.759Y-35.743
X-19.771Y-35.188
X-21.235Y-34.315
X-22.184Y-33.702
X-22.895Y-33.215
X-23.646Y-32.678
X-24.439Y-32.080
X-25.300Y-31.393
X-25.858Y-30.925
X-26.582Y-30.295
X-27.404Y-29.539
X-28.121Y-28.837
X-29.237Y-27.687
X-30.019Y-26.824
X-30.669Y-26.070
X-31.727Y-24.755
X-32.366Y-23.897
X-32.954Y-23.063
X-33.861Y-21.663
X-34.373Y-20.802
X-34.935Y-19.790
X-35.772Y-18.152
X-36.187Y-17.268
X-36.579Y-16.378
X-36.951Y-15.479
X-37.303Y-14.574
X-37.633Y-13.661
X-37.942Y-12.741
X-38.232Y-11.814
X-38.503Y-10.879
X-38.752Y-9.935
X-39.003Y-8.896
X-39.187Y-8.020
X-39.366Y-7.042
X-39.608Y-5.407
X-39.720Y-4.395
X-39.781Y-3.365
X-39.801Y-2.413
X-39.766Y0.274
X-39.776Y0.440
X-39.844Y0.925
X-39.867Y1.291
X-39.888Y2.533
X-39.873Y3.291
X-39.819Y4.286
X-39.719Y5.384
X-39.635Y6.069
X-39.491Y7.031
X-39.345Y7.845
X-38.997Y9.449
X-38.800Y10.241
X-38.449Y11.525
X-38.157Y12.492
X-37.848Y13.432
X-37.323Y14.871
X-36.946Y15.805
X-36.368Y17.118
X-35.651Y18.584
X-35.269Y19.306
X-34.868Y20.021
X-34.449Y20.733
X-33.926Y21.578
X-33.040Y22.897
X-32.098Y24.179
X-31.039Y25.508
X-30.153Y26.569
X-28.978Y27.877
X-28.319Y28.558
X-27.729Y29.138
X-27.093Y29.724
X-26.458Y30.274
X-25.581Y30.990
X-24.982Y31.455
X-23.771Y32.358
X-23.157Y32.794
X-21.749Y33.737
X-20.770Y34.346
X-19.993Y34.802
X-18.674Y35.522
X-17.228Y36.240
X-16.200Y36.703
X-15.232Y37.104
X-14.043Y37.556
X-13.039Y37.902
X-12.315Y38.130
X-10.793Y38.557
X-9.084Y38.939
X-7.864Y39.167
X-6.860Y39.327
X-3.039Y39.857
X-2.250Y39.942
X-1.697Y39.981
X-1.051Y40.006
X-0.454Y40.003
X0.251Y39.971
X0.768Y39.928
X1.555Y39.837
X2.273Y39.764
X3.009Y39.700
X4.420Y39.569
X4.764Y39.524
X5.827Y39.347
X7.205Y39.069
X7.960Y38.893
X9.015Y38.621
X10.043Y38.325
X10.876Y38.065
X12.097Y37.653
X12.702Y37.430
X13.900Y36.959
X14.481Y36.714
X15.000Y36.483
X15.450Y36.261
X16.259Y35.877
X17.379Y35.335
X18.267Y34.875
X18.794Y34.583
X19.571Y34.123
X20.427Y33.578
X21.225Y33.034
X22.059Y32.430
X22.818Y31.848
X23.557Y31.252
X24.429Y30.535
X25.017Y30.032
X25.727Y29.394
X26.367Y28.788
X27.091Y28.064
X27.700Y27.422
X28.390Y26.656
X28.967Y25.978
X29.617Y25.175
X30.162Y24.463
X30.772Y23.626
X31.327Y22.822
X31.828Y22.057
X32.379Y21.170
X32.884Y20.313
X33.963Y18.328
X34.468Y17.337
X34.785Y16.674
X35.096Y16.001
X35.648Y14.704
X36.186Y13.263
X36.633Y11.884
X37.035Y10.430
X37.360Y9.055
X37.520Y8.266
X37.671Y7.444
X37.838Y6.314
X38.012Y5.056
X38.129Y3.988
X38.374Y2.336
X38.449Y1.609
X38.489Y0.967
X38.498Y-0.282
X38.462Y-1.164
X38.402Y-1.984
X38.269Y-3.351
X38.144Y-4.422
X38.013Y-5.391
X37.807Y-6.715
X37.561Y-8.058
X37.426Y-8.705
X36.966Y-10.651
X36.615Y-11.929
X36.425Y-12.562
X36.092Y-13.588
X35.760Y-14.529
X35.143Y-16.104
X34.715Y-17.094
X34.295Y-17.998
X33.645Y-19.290
X33.274Y-19.981
X32.662Y-21.049
X32.219Y-21.779
X31.601Y-22.737
X30.474Y-24.353
X29.369Y-25.798
X28.881Y-26.384
X27.764Y-27.668
X26.996Y-28.543
X26.603Y-28.960
X26.109Y-29.443
X25.411Y-30.068
X24.128Y-31.131
X23.252Y-31.861
X22.376Y-32.553
X21.521Y-33.189
X20.149Y-34.130
X19.448Y-34.579
X18.406Y-35.202
X17.814Y-35.537
X16.857Y-36.048
X16.251Y-36.355
X15.274Y-36.820
X14.592Y-37.125
X13.604Y-37.540
X12.988Y-37.784
X11.769Y-38.231
X9.777Y-38.880
X8.071Y-39.343
X6.465Y-39.713
X5.755Y-39.851
X4.962Y-39.973
X4.329Y-40.049
X3.805Y-40.099
X2.780Y-40.166
X0.989Y-40.259
X-1.182Y-40.269
X-1.470Y-40.278
X-1.849Y-40.309
Z12.700
G0X-1.326Y-43.165
G1Z-0.106F2032.0
X-1.406Y-43.043Z-0.222F4064.0
X-1.482Y-42.855Z-0.405
X-1.621Y-42.275Z-0.975
X-1.743Y-41.427Z-1.814
X-1.849Y-40.309Z-2.032
X-3.077Y-40.255
X-3.942Y-40.191
X-5.313Y-40.050
X-6.285Y-39.918
X-7.460Y-39.723
X-8.106Y-39.598
X-9.004Y-39.408
X-9.891Y-39.194
X-10.767Y-38.961
X-11.633Y-38.709
X-12.800Y-38.333
X-13.749Y-37.996
X-14.834Y-37.576
X-15.771Y-37.184
X-16.641Y-36.794
X-17.446Y-36.410
X-18.759Y-35.743
X-19.771Y-35.188
X-21.235Y-34.315
X-22.184Y-33.702
X-22.895Y-33.215
X-23.646Y-32.678
X-24.439Y-32.080
X-25.300Y-31.393
X-25.858Y-30.925
X-26.582Y-30.295
X-27.404Y-29.539
X-28.121Y-28.837
X-29.237Y-27.687
X-30.019Y-26.824
X-30.669Y-26.070
X-31.727Y-24.755
X-32.366Y-23.897
X-32.954Y-23.063
X-33.861Y-21.663
X-34.373Y-20.802
X-34.935Y-19.790
X-35.772Y-18.152
X-36.187Y-17.268
X-36.579Y-16.378
X-36.951Y-15.479
X-37.303Y-14.574
X-37.633Y-13.661
X-37.942Y-12.741
X-38.232Y-11.814
X-38.503Y-10.879
X-38.752Y-9.935
X-39.003Y-8.896
X-39.187Y-8.020
X-39.366Y-7.042
X-39.608Y-5.407
X-39.720Y-4.395
X-39.781Y-3.365
X-39.801Y-2.413
X-39.766Y0.274
X-39.776Y0.440
X-39.844Y0.925
X-39.867Y1.291
X-39.888Y2.533
X-39.873Y3.291
X-39.819Y4.286
X-39.719Y5.384
X-39.635Y6.069
X-39.491Y7.031
X-39.345Y7.845
X-38.997Y9.449
X-38.800Y10.241
X-38.449Y11.525
X-38.157Y12.492
X-37.848Y13.432
X-37.323Y14.871
X-36.946Y15.805
X-36.368Y17.118
X-35.651Y18.584
X-35.269Y19.306
X-34.868Y20.021
X-34.449Y20.733
X-33.926Y21.578
X-33.040Y22.897
X-32.098Y24.179
X-31.039Y25.508
X-30.153Y26.569
X-28.978Y27.877
X-28.319Y28.558
X-27.729Y29.138
X-27.093Y29.724
X-26.458Y30.274
X-25.581Y30.990
X-24.982Y31.455
X-23.771Y32.358
X-23.157Y32.794
X-21.749Y33.737
X-20.770Y34.346
X-19.993Y34.802
X-18.674Y35.522
X-17.228Y36.240
X-16.200Y36.703
X-15.232Y37.104
X-14.043Y37.556
X-13.039Y37.902
X-12.315Y38.130
X-10.793Y38.557
X-9.084Y38.939
X-7.864Y39.167
X-6.860Y39.327
X-3.039Y39.857
X-2.250Y39.942
X-1.697Y39.981
X-1.051Y40.006
X-0.454Y40.003
X0.251Y39.971
X0.768Y39.928
X1.555Y39.837
X2.273Y39.764
X3.009Y39.700
X4.420Y39.569
X4.764Y39.524
X5.827Y39.347
X7.205Y39.069
X7.960Y38.893
X9.015Y38.621
X10.043Y38.325
X10.876Y38.065
X12.097Y37.653
X12.702Y37.430
X13.900Y36.959
X14.481Y36.714
X15.000Y36.483
X15.450Y36.261
X16.259Y35.877
X17.379Y35.335
X18.267Y34.875
X18.794Y34.583
X19.571Y34.123
X20.427Y33.578
X21.225Y33.034
X22.059Y32.430
X22.818Y31.848
X23.557Y31.252
X24.429Y30.535
X25.017Y30.032
X25.727Y29.394
X26.367Y28.788
X27.091Y28.064
X27.700Y27.422
X28.390Y26.656
X28.967Y25.978
X29.617Y25.175
X30.162Y24.463
X30.772Y23.626
X31.327Y22.822
X31.828Y22.057
X32.379Y21.170
X32.884Y20.313
X33.963Y18.328
X34.468Y17.337
X34.785Y16.674
X35.096Y16.001
X35.648Y14.704
X36.186Y13.263
X36.633Y11.884
X37.035Y10.430
X37.360Y9.055
X37.520Y8.266
X37.671Y7.444
X37.838Y6.314
X38.012Y5.056
X38.129Y3.988
X38.374Y2.336
X38.449Y1.609
X38.489Y0.967
X38.498Y-0.282
X38.462Y-1.164
X38.402Y-1.984
X38.269Y-3.351
X38.144Y-4.422
X38.013Y-5.391
X37.807Y-6.715
X37.561Y-8.058
X37.426Y-8.705
X36.966Y-10.651
X36.615Y-11.929
X36.425Y-12.562
X36.092Y-13.588
X35.760Y-14.529
X35.143Y-16.104
X34.715Y-17.094
X34.295Y-17.998
X33.645Y-19.290
X33.274Y-19.981
X32.662Y-21.049
X32.219Y-21.779
X31.601Y-22.737
X30.474Y-24.353
X29.369Y-25.798
X28.881Y-26.384
X27.764Y-27.668
X26.996Y-28.543
X26.603Y-28.960
X26.109Y-29.443
X25.411Y-30.068
X24.128Y-31.131
X23.252Y-31.861
X22.376Y-32.553
X21.521Y-33.189
X20.149Y-34.130
X19.448Y-34.579
X18.406Y-35.202
X17.814Y-35.537
X16.857Y-36.048
X16.251Y-36.355
X15.274Y-36.820
X14.592Y-37.125
X13.604Y-37.540
X12.988Y-37.784
X11.769Y-38.231
X9.777Y-38.880
X8.071Y-39.343
X6.465Y-39.713
X5.755Y-39.851
X4.962Y-39.973
X4.329Y-40.049
X3.805Y-40.099
X2.780Y-40.166
X0.989Y-40.259
X-1.182Y-40.269
X-1.470Y-40.278
X-1.849Y-40.309
Z12.700
G0X-1.326Y-43.165
G1Z-0.106F2032.0
X-1.406Y-43.043Z-0.222F4064.0
X-1.482Y-42.855Z-0.405
X-1.621Y-42.275Z-0.975
X-1.743Y-41.427Z-1.814
X-1.849Y-40.309Z-2.923
X-3.077Y-40.255Z-2.882
X-3.942Y-40.191Z-2.862
X-5.313Y-40.050Z-2.834
X-6.285Y-39.918Z-2.823
X-7.460Y-39.723Z-2.813
X-8.106Y-39.598Z-2.814
X-9.004Y-39.408Z-2.812
X-9.891Y-39.194Z-2.816
X-10.767Y-38.961Z-2.821
X-11.633Y-38.709Z-2.826
X-12.800Y-38.333Z-2.832
X-13.749Y-37.996Z-2.841
X-14.834Y-37.576Z-2.850
X-15.771Y-37.184Z-2.856
X-16.641Y-36.794Z-2.861
X-17.446Y-36.410Z-2.863
X-18.759Y-35.743Z-2.854
X-19.771Y-35.188Z-2.846
X-21.235Y-34.315Z-2.825
X-22.184Y-33.702Z-2.810
X-22.895Y-33.215Z-2.799
X-23.646Y-32.678Z-2.784
X-24.439Y-32.080Z-2.767
X-25.300Y-31.393Z-2.749
X-25.858Y-30.925Z-2.741
X-26.582Y-30.295Z-2.725
X-27.404Y-29.539Z-2.710
X-28.121Y-28.837Z-2.695
X-29.237Y-27.687Z-2.685
X-30.019Y-26.824Z-2.682
X-30.669Y-26.070Z-2.683
X-31.727Y-24.755Z-2.690
X-32.366Y-23.897Z-2.695
X-32.954Y-23.063Z-2.700
X-33.861Y-21.663Z-2.704
X-34.373Y-20.802
X-34.935Y-19.790Z-2.699
X-35.772Y-18.152Z-2.704
X-36.187Y-17.268Z-2.707
X-36.579Y-16.378Z-2.709
X-36.951Y-15.479Z-2.711
X-37.303Y-14.574Z-2.712
X-37.633Y-13.661Z-2.713
X-37.942Y-12.741Z-2.714
X-38.232Y-11.814
X-38.503Y-10.879Z-2.711
X-38.752Y-9.935Z-2.710
X-39.003Y-8.896Z-2.706
X-39.187Y-8.020Z-2.712
X-39.366Y-7.042Z-2.723
X-39.608Y-5.407Z-2.749
X-39.720Y-4.395Z-2.772
X-39.781Y-3.365
X-39.801Y-2.413Z-2.757
X-39.766Y0.274Z-2.732
X-39.776Y0.440Z-2.721
X-39.844Y0.925Z-2.649
X-39.867Y1.291Z-2.624
X-39.888Y2.533Z-2.593
X-39.873Y3.291Z-2.584
X-39.819Y4.286Z-2.577
X-39.719Y5.384Z-2.586
X-39.635Y6.069Z-2.593
X-39.491Y7.031Z-2.611
X-39.345Y7.845Z-2.627
X-38.997Y9.449Z-2.665
X-38.800Y10.241Z-2.682
X-38.449Y11.525Z-2.696
X-38.157Y12.492Z-2.702
X-37.848Y13.432Z-2.706
X-37.323Y14.871Z-2.705
X-36.946Y15.805Z-2.702
X-36.368Y17.118Z-2.698
X-35.651Y18.584Z-2.688
X-35.269Y19.306Z-2.685
X-34.868Y20.021Z-2.682
X-34.449Y20.733Z-2.679
X-33.926Y21.578Z-2.675
X-33.040Y22.897Z-2.677
X-32.098Y24.179Z-2.686
X-31.039Y25.508Z-2.692
X-30.153Y26.569Z-2.681
X-28.978Y27.877Z-2.673
X-28.319Y28.558Z-2.671
X-27.729Y29.138Z-2.675
X-27.093Y29.724Z-2.691
X-26.458Y30.274Z-2.712
X-25.581Y30.990Z-2.751
X-24.982Y31.455Z-2.774
X-23.771Y32.358Z-2.808
X-23.157Y32.794Z-2.820
X-21.749Y33.737Z-2.835
X-20.770Y34.346Z-2.841
X-19.993Y34.802Z-2.846
X-18.674Y35.522
X-17.228Y36.240Z-2.838
X-16.200Y36.703Z-2.832
X-15.232Y37.104Z-2.828
X-14.043Y37.556Z-2.817
X-13.039Y37.902Z-2.811
X-12.315Y38.130Z-2.807
X-10.793Y38.557Z-2.798
X-9.084Y38.939Z-2.781
X-7.864Y39.167Z-2.780
X-6.860Y39.327Z-2.786
X-3.039Y39.857Z-2.841
X-2.250Y39.942Z-2.860
X-1.697Y39.981Z-2.867
X-1.051Y40.006
X-0.454Y40.003Z-2.862
X0.251Y39.971Z-2.843
X0.768Y39.928Z-2.818
X1.555Y39.837Z-2.772
X2.273Y39.764Z-2.757
X3.009Y39.700Z-2.769
X4.420Y39.569Z-2.828
X4.764Y39.524Z-2.840
X5.827Y39.347Z-2.853
X7.205Y39.069Z-2.872
X7.960Y38.893Z-2.880
X9.015Y38.621Z-2.892
X10.043Y38.325Z-2.897
X10.876Y38.065Z-2.899
X12.097Y37.653Z-2.891
X12.702Y37.430Z-2.887
X13.900Y36.959Z-2.874
X14.481Y36.714Z-2.866
X15.000Y36.483Z-2.861
X15.450Y36.261Z-2.839
X16.259Y35.877Z-2.830
X17.379Y35.335Z-2.846
X18.267Y34.875Z-2.859
X18.794Y34.583Z-2.860
X19.571Y34.123Z-2.858
X20.427Y33.578Z-2.848
X21.225Y33.034Z-2.833
X22.059Y32.430Z-2.817
X22.818Y31.848Z-2.801
X23.557Y31.252Z-2.787
X24.429Y30.535Z-2.792
X25.017Y30.032Z-2.797
X25.727Y29.394Z-2.806
X26.367Y28.788Z-2.813
X27.091Y28.064Z-2.818
X27.700Y27.422Z-2.823
X28.390Y26.656Z-2.826
X28.967Y25.978Z-2.827
X29.617Y25.175Z-2.828
X30.162Y24.463Z-2.826
X30.772Y23.626Z-2.825
X31.327Y22.822Z-2.821
X31.828Y22.057Z-2.818
X32.379Y21.170Z-2.813
X32.884Y20.313Z-2.806
X33.963Y18.328Z-2.789
X34.468Y17.337Z-2.766
X34.785Y16.674Z-2.755
X35.096Y16.001Z-2.750
X35.648Y14.704Z-2.745
X36.186Y13.263Z-2.739
X36.633Y11.884Z-2.735
X37.035Y10.430Z-2.734
X37.360Y9.055Z-2.745
X37.520Y8.266Z-2.754
X37.671Y7.444Z-2.770
X37.838Y6.314Z-2.811
X38.012Y5.056Z-2.845
X38.129Y3.988Z-2.864
X38.374Y2.336Z-2.806
X38.449Y1.609Z-2.802
X38.489Y0.967Z-2.810
X38.498Y-0.282Z-2.843
X38.462Y-1.164Z-2.874
X38.402Y-1.984Z-2.884
X38.269Y-3.351Z-2.882
X38.144Y-4.422Z-2.877
X38.013Y-5.391Z-2.873
X37.807Y-6.715Z-2.872
X37.561Y-8.058Z-2.866
X37.426Y-8.705Z-2.867
X36.966Y-10.651Z-2.864
X36.615Y-11.929Z-2.861
X36.425Y-12.562Z-2.860
X36.092Y-13.588
X35.760Y-14.529Z-2.861
X35.143Y-16.104Z-2.864
X34.715Y-17.094Z-2.865
X34.295Y-17.998Z-2.868
X33.645Y-19.290Z-2.871
X33.274Y-19.981Z-2.869
X32.662Y-21.049Z-2.870
X32.219Y-21.779Z-2.866
X31.601Y-22.737Z-2.861
X30.474Y-24.353Z-2.853
X29.369Y-25.798Z-2.847
X28.881Y-26.384Z-2.853
X27.764Y-27.668Z-2.856
X26.996Y-28.543Z-2.820
X26.603Y-28.960Z-2.813
X26.109Y-29.443Z-2.819
X25.411Y-30.068Z-2.851
X24.128Y-31.131Z-2.915
X23.252Y-31.861Z-2.912
X22.376Y-32.553Z-2.907
X21.521Y-33.189Z-2.905
X20.149Y-34.130Z-2.901
X19.448Y-34.579Z-2.898
X18.406Y-35.202Z-2.896
X17.814Y-35.537Z-2.895
X16.857Y-36.048
X16.251Y-36.355Z-2.896
X15.274Y-36.820
X14.592Y-37.125Z-2.897
X13.604Y-37.540Z-2.895
X12.988Y-37.784Z-2.896
X11.769Y-38.231Z-2.897
X9.777Y-38.880Z-2.902
X8.071Y-39.343Z-2.893
X6.465Y-39.713Z-2.860
X5.755Y-39.851Z-2.848
X4.962Y-39.973Z-2.845
X4.329Y-40.049Z-2.854
X3.805Y-40.099Z-2.870
X2.780Y-40.166Z-2.910
X0.989Y-40.259Z-2.952
X-1.182Y-40.269Z-2.895
X-1.470Y-40.278Z-2.897
X-1.849Y-40.309Z-2.923
Z12.700
G0X-55.820Y25.349
G1Z-1.016F2032.0
X-56.255Y25.713F4064.0
Z12.700
G0X-55.820Y25.349
G1Z-2.032F2032.0
X-56.255Y25.713Z-1.977F4064.0
Z12.700
G0X-55.820Y25.349
G1Z-2.543F2032.0
X-56.255Y25.713Z-1.977F4064.0
Z12.700
G0X-55.550Y27.331
G1Z-1.016F2032.0
X-55.026Y27.298F4064.0
Z12.700
G0X-55.550Y27.331
G1Z-2.032F2032.0
X-55.026Y27.298F4064.0
Z12.700
G0X-55.550Y27.331
G1Z-2.119F2032.0
X-55.026Y27.298Z-2.640F4064.0
Z12.700
G0X-42.708Y44.891
G1Z-1.016F2032.0
X-42.389Y45.192F4064.0
X-41.416Y46.013
X-40.306Y46.967
X-39.551Y47.621
X-39.218Y47.924
X-38.853Y48.279
X-38.436Y48.726
X-38.169Y49.046
X-37.857Y49.458
X-37.509Y49.973
X-36.982Y50.869
X-36.654Y51.484
X-36.319Y51.512
X-35.689Y51.598
X-35.090Y51.730
X-34.446Y51.935
X-33.917Y52.160
X-33.384Y52.454
X-32.602Y52.983
X-31.858Y53.452
X-29.811Y54.617
X-28.807Y55.182
X-28.219Y55.529
X-27.859Y55.767
X-27.336Y56.152
X-27.056Y56.384
X-26.624Y56.778
X-26.081Y57.348
X-25.491Y58.073
X-25.965Y59.106
X-26.140Y59.590
X-26.264Y60.007
X-26.374Y60.508
X-26.452Y61.079
X-26.481Y61.526
X-26.525Y63.195
X-26.587Y66.326
X-26.661Y75.164
X-26.694Y82.463
X-26.712Y98.423
X-26.751Y99.549
X-26.811Y100.241
X-26.893Y100.871
X-26.993Y101.474
X-27.208Y102.498
X-27.390Y103.211
X-27.694Y104.202
X-27.927Y104.857
X-28.136Y105.387
X-28.606Y106.438
X-28.855Y106.934
X-29.309Y107.745
X-29.579Y108.156
X-29.921Y108.586
X-30.380Y109.043
X-30.888Y109.440
X-31.187Y109.615
X-31.390Y109.702
Z12.700
G0X-42.708Y44.891
G1Z-2.032F2032.0
X-42.389Y45.192F4064.0
X-41.416Y46.013
X-40.306Y46.967
X-39.551Y47.621
X-39.218Y47.924
X-38.853Y48.279
X-38.436Y48.726
X-38.169Y49.046
X-37.857Y49.458
X-37.509Y49.973
X-36.982Y50.869
X-36.654Y51.484
X-36.319Y51.512
X-35.689Y51.598
X-35.090Y51.730
X-34.446Y51.935
X-33.917Y52.160
X-33.384Y52.454
X-32.602Y52.983
X-31.858Y53.452
X-29.811Y54.617
X-28.807Y55.182
X-28.219Y55.529
X-27.859Y55.767
X-27.336Y56.152
X-27.056Y56.384
X-26.624Y56.778
X-26.081Y57.348
X-25.491Y58.073
X-25.965Y59.106
X-26.140Y59.590
X-26.264Y60.007
X-26.374Y60.508
X-26.452Y61.079
X-26.481Y61.526
X-26.525Y63.195
X-26.587Y66.326
X-26.661Y75.164
X-26.694Y82.463
X-26.712Y98.423
X-26.751Y99.549
X-26.811Y100.241
X-26.893Y100.871
X-26.993Y101.474
X-27.208Y102.498
X-27.390Y103.211
X-27.694Y104.202
X-27.927Y104.857
X-28.136Y105.387
X-28.606Y106.438
X-28.855Y106.934
X-29.309Y107.745
X-29.579Y108.156
X-29.921Y108.586
X-30.380Y109.043
X-30.888Y109.440
X-31.187Y109.615
X-31.390Y109.702
Z12.700
G0X-42.708Y44.891
G1Z-2.739F2032.0
X-42.389Y45.192Z-2.732F4064.0
X-41.416Y46.013Z-2.662
X-40.306Y46.967Z-2.627
X-39.551Y47.621Z-2.630
X-39.218Y47.924Z-2.645
X-38.853Y48.279Z-2.685
X-38.436Y48.726Z-2.770
X-38.169Y49.046Z-2.850
X-37.857Y49.458Z-2.982
X-37.509Y49.973Z-3.048
X-36.982Y50.869
X-36.654Y51.484
X-36.319Y51.512
X-35.689Y51.598
X-35.090Y51.730
X-34.446Y51.935Z-2.963
X-33.917Y52.160Z-2.855
X-33.384Y52.454Z-2.802
X-32.602Y52.983Z-2.823
X-31.858Y53.452Z-2.822
X-29.811Y54.617Z-2.774
X-28.807Y55.182
X-28.219Y55.529Z-2.799
X-27.859Y55.767Z-2.837
X-27.336Y56.152Z-2.942
X-27.056Y56.384Z-3.024
X-26.624Y56.778Z-3.048
X-26.081Y57.348
X-25.491Y58.073
X-25.965Y59.106
X-26.140Y59.590
X-26.264Y60.007
X-26.374Y60.508Z-2.957
X-26.452Y61.079Z-2.879
X-26.481Y61.526Z-2.850
X-26.525Y63.195Z-2.806
X-26.587Y66.326Z-2.743
X-26.661Y75.164Z-2.669
X-26.694Y82.463Z-2.635
X-26.712Y98.423Z-2.616
X-26.751Y99.549Z-2.617
X-26.811Y100.241
X-26.893Y100.871Z-2.615
X-26.993Y101.474Z-2.614
X-27.208Y102.498Z-2.615
X-27.390Y103.211Z-2.622
X-27.694Y104.202Z-2.629
X-27.927Y104.857Z-2.636
X-28.136Y105.387Z-2.639
X-28.606Y106.438Z-2.643
X-28.855Y106.934Z-2.641
X-29.309Y107.745Z-2.638
X-29.579Y108.156Z-2.653
X-29.921Y108.586Z-2.699
X-30.380Y109.043Z-2.808
X-30.888Y109.440Z-2.974
X-31.187Y109.615Z-3.048
X-31.390Y109.702
Z12.700
G0X-42.708Y44.891
G1Z-2.739F2032.0
X-42.389Y45.192Z-2.732F4064.0
X-41.416Y46.013Z-2.662
X-40.306Y46.967Z-2.627
X-39.551Y47.621Z-2.630
X-39.218Y47.924Z-2.645
X-38.853Y48.279Z-2.685
X-38.436Y48.726Z-2.770
X-38.169Y49.046Z-2.850
X-37.857Y49.458Z-2.982
X-37.509Y49.973Z-3.173
X-36.982Y50.869Z-3.175
X-36.654Y51.484
X-36.319Y51.512
X-35.689Y51.598
X-35.090Y51.730Z-3.160
X-34.446Y51.935Z-2.963
X-33.917Y52.160Z-2.855
X-33.384Y52.454Z-2.802
X-32.602Y52.983Z-2.823
X-31.858Y53.452Z-2.822
X-29.811Y54.617Z-2.774
X-28.807Y55.182
X-28.219Y55.529Z-2.799
X-27.859Y55.767Z-2.837
X-27.336Y56.152Z-2.942
X-27.056Y56.384Z-3.024
X-26.624Y56.778Z-3.175
X-26.081Y57.348
X-25.491Y58.073
X-25.965Y59.106
X-26.140Y59.590
X-26.264Y60.007Z-3.067
X-26.374Y60.508Z-2.957
X-26.452Y61.079Z-2.879
X-26.481Y61.526Z-2.850
X-26.525Y63.195Z-2.806
X-26.587Y66.326Z-2.743
X-26.661Y75.164Z-2.669
X-26.694Y82.463Z-2.635
X-26.712Y98.423Z-2.616
X-26.751Y99.549Z-2.617
X-26.811Y100.241
X-26.893Y100.871Z-2.615
X-26.993Y101.474Z-2.614
X-27.208Y102.498Z-2.615
X-27.390Y103.211Z-2.622
X-27.694Y104.202Z-2.629
X-27.927Y104.857Z-2.636
X-28.136Y105.387Z-2.639
X-28.606Y106.438Z-2.643
X-28.855Y106.934Z-2.641
X-29.309Y107.745Z-2.638
X-29.579Y108.156Z-2.653
X-29.921Y108.586Z-2.699
X-30.380Y109.043Z-2.808
X-30.888Y109.440Z-2.974
X-31.187Y109.615Z-3.072
X-31.390Y109.702Z-3.124
Z12.700
G0X-31.531Y109.736
G1Z-1.016F2032.0
X-31.390Y109.702F4064.0
X-31.069Y110.254
Z12.700
G0X-31.531Y109.736
G1Z-2.032F2032.0
X-31.390Y109.702F4064.0
X-31.069Y110.254
Z12.700
G0X-31.531Y109.736
G1Z-3.048F2032.0
X-31.390Y109.702F4064.0
X-31.069Y110.254Z-2.488
Z12.700
G0X-31.531Y109.736
G1Z-3.143F2032.0
X-31.390Y109.702Z-3.125F4064.0
X-31.069Y110.254Z-2.488
Z12.700
G0X-31.755Y109.739
G1Z-1.016F2032.0
X-31.531Y109.736F4064.0
X-31.382Y110.577
Z12.700
G0X-31.755Y109.739
G1Z-2.032F2032.0
X-31.531Y109.736F4064.0
X-31.382Y110.577
Z12.700
G0X-31.755Y109.739
G1Z-3.048F2032.0
X-31.531Y109.736F4064.0
X-31.382Y110.577Z-2.293
Z12.700
G0X-31.755Y109.739
G1Z-3.135F2032.0
X-31.531Y109.736Z-3.145F4064.0
X-31.382Y110.577Z-2.293
Z12.700
G0X-0.999Y153.005
G1Z-1.016F2032.0
X-1.347Y153.892F4064.0
Z12.700
G0X-0.999Y153.005
G1Z-2.032F2032.0
X-1.347Y153.892F4064.0
Z12.700
G0X-0.999Y153.005
G1Z-3.048F2032.0
X-1.347Y153.892Z-2.537F4064.0
Z12.700
G0X-0.999Y153.005
G1Z-3.175F2032.0
X-1.347Y153.892Z-2.537F4064.0
Z12.700
G0X-0.918Y153.023
G1Z-1.016F2032.0
X-1.084Y153.880F4064.0
Z12.700
G0X-0.918Y153.023
G1Z-2.032F2032.0
X-1.084Y153.880F4064.0
Z12.700
G0X-0.918Y153.023
G1Z-3.048F2032.0
X-1.084Y153.880Z-2.622F4064.0
Z12.700
G0X-0.918Y153.023
G1Z-3.175F2032.0
X-1.084Y153.880Z-2.622F4064.0
Z12.700
G0X0.755Y152.908
G1Z-1.016F2032.0
X1.198Y152.548F4064.0
X1.602Y152.155
X1.843Y151.891
X2.004Y151.689
X2.386Y151.140
X2.712Y150.544
X2.818Y150.323
X3.291Y149.259
X3.523Y148.698
X3.846Y147.841
X4.210Y146.734
X4.412Y146.016
X4.682Y144.871
X4.758Y144.381
X4.801Y144.007
X4.917Y142.187
X4.951Y141.247
X4.969Y139.848
X4.951Y133.227
X4.768Y109.200
X4.736Y101.056
X4.761Y80.752
X4.803Y66.050
X4.794Y65.465
X4.761Y64.857
X4.715Y64.239
X4.655Y63.541
X4.607Y63.040
X3.829Y62.773
X3.245Y62.621
X2.665Y62.519
X2.089Y62.458
X1.515Y62.437
X0.820Y62.442
X-0.643Y62.443
X-2.210Y62.424
Z12.700
G0X0.755Y152.908
G1Z-2.032F2032.0
X1.198Y152.548F4064.0
X1.602Y152.155
X1.843Y151.891
X2.004Y151.689
X2.386Y151.140
X2.712Y150.544
X2.818Y150.323
X3.291Y149.259
X3.523Y148.698
X3.846Y147.841
X4.210Y146.734
X4.412Y146.016
X4.682Y144.871
X4.758Y144.381
X4.801Y144.007
X4.917Y142.187
X4.951Y141.247
X4.969Y139.848
X4.951Y133.227
X4.768Y109.200
X4.736Y101.056
X4.761Y80.752
X4.803Y66.050
X4.794Y65.465
X4.761Y64.857
X4.715Y64.239
X4.655Y63.541
X4.607Y63.040
X3.829Y62.773
X3.245Y62.621
X2.665Y62.519
X2.089Y62.458
X1.515Y62.437
X0.820Y62.442
X-0.643Y62.443
X-2.210Y62.424
Z12.700
G0X0.755Y152.908
G1Z-3.048F2032.0
X1.198Y152.548F4064.0
X1.602Y152.155
X1.843Y151.891
X2.004Y151.689Z-3.018
X2.386Y151.140Z-2.939
X2.712Y150.544Z-2.908
X2.818Y150.323Z-2.910
X3.291Y149.259Z-2.904
X3.523Y148.698Z-2.900
X3.846Y147.841Z-2.889
X4.210Y146.734Z-2.871
X4.412Y146.016Z-2.865
X4.682Y144.871Z-2.860
X4.758Y144.381Z-2.874
X4.801Y144.007Z-2.900
X4.917Y142.187Z-3.016
X4.951Y141.247Z-3.048
X4.969Y139.848
X4.951Y133.227
X4.768Y109.200Z-2.866
X4.736Y101.056Z-2.833
X4.761Y80.752Z-2.830
X4.803Y66.050Z-2.789
X4.794Y65.465Z-2.816
X4.761Y64.857Z-2.909
X4.715Y64.239Z-3.048
X4.655Y63.541
X4.607Y63.040
X3.829Y62.773
X3.245Y62.621
X2.665Y62.519
X2.089Y62.458Z-2.965
X1.515Y62.437Z-2.930
X0.820Y62.442Z-2.918
X-0.643Y62.443
X-2.210Y62.424Z-2.938
Z12.700
G0X0.755Y152.908
G1Z-3.175F2032.0
X1.198Y152.548F4064.0
X1.602Y152.155Z-3.142
X1.843Y151.891Z-3.066
X2.004Y151.689Z-3.018
X2.386Y151.140Z-2.939
X2.712Y150.544Z-2.908
X2.818Y150.323Z-2.910
X3.291Y149.259Z-2.904
X3.523Y148.698Z-2.900
X3.846Y147.841Z-2.889
X4.210Y146.734Z-2.871
X4.412Y146.016Z-2.865
X4.682Y144.871Z-2.860
X4.758Y144.381Z-2.874
X4.801Y144.007Z-2.900
X4.917Y142.187Z-3.016
X4.951Y141.247Z-3.050
X4.969Y139.848Z-3.068
X4.951Y133.227Z-3.050
X4.768Y109.200Z-2.866
X4.736Y101.056Z-2.833
X4.761Y80.752Z-2.830
X4.803Y66.050Z-2.789
X4.794Y65.465Z-2.816
X4.761Y64.857Z-2.909
X4.715Y64.239Z-3.096
X4.655Y63.541Z-3.175
X4.607Y63.040
X3.829Y62.773
X3.245Y62.621
X2.665Y62.519Z-3.049
X2.089Y62.458Z-2.965
X1.515Y62.437Z-2.930
X0.820Y62.442Z-2.918
X-0.643Y62.443
X-2.210Y62.424Z-2.938
Z12.700
G0X-5.953Y63.090
G1Z-1.016F2032.0
X-5.108Y62.772F4064.0
X-4.318Y62.560
X-3.953Y62.490
X-3.409Y62.425
X-2.818Y62.399
X-2.210Y62.424
X-2.293Y63.545
Z12.700
G0X-5.953Y63.090
G1Z-2.032F2032.0
X-5.108Y62.772F4064.0
X-4.318Y62.560
X-3.953Y62.490
X-3.409Y62.425
X-2.818Y62.399
X-2.210Y62.424
X-2.293Y63.545Z-1.817
Z12.700
G0X-5.953Y63.090
G1Z-3.048F2032.0
X-5.108Y62.772F4064.0
X-4.318Y62.560
X-3.953Y62.490
X-3.409Y62.425Z-2.994
X-2.818Y62.399Z-2.941
X-2.210Y62.424Z-2.938
X-2.293Y63.545Z-1.817
Z12.700
G0X-5.953Y63.090
G1Z-3.175F2032.0
X-5.108Y62.772F4064.0
X-4.318Y62.560
X-3.953Y62.490Z-3.094
X-3.409Y62.425Z-2.994
X-2.818Y62.399Z-2.941
X-2.210Y62.424Z-2.938
X-2.293Y63.545Z-1.817
Z12.700
G0X4.607Y63.040
G1Z-1.016F2032.0
X5.204Y62.706F4064.0
X5.741Y62.449
X5.860Y62.398
X6.265Y62.241
X6.612Y62.127
X7.308Y61.940
X7.710Y61.858
X8.367Y61.748
X9.520Y61.577
X10.559Y61.398
X12.338Y61.035
X13.743Y60.703
X15.134Y60.342
X16.527Y59.957
X18.664Y59.331
X19.626Y59.083
X20.214Y58.945
X20.841Y58.815
X21.227Y58.745
X21.714Y58.681
X22.382Y58.637
X23.100Y58.641
X23.865Y58.704
X24.167Y59.360
X24.294Y59.693
X24.530Y60.457
X24.687Y61.247
X24.745Y61.767
X24.764Y62.139
X24.934Y69.391
X24.981Y73.006
X25.004Y79.073
X24.990Y88.658
X24.997Y89.731
X25.044Y91.898
X25.153Y95.337
X25.220Y97.790
X25.282Y99.661
X25.312Y100.568
X25.326Y101.142
X25.412Y102.079
X25.508Y102.698
X25.601Y103.169
X25.781Y103.885
X26.004Y104.602
X26.274Y105.319
X26.471Y105.779
X26.753Y106.382
X27.026Y106.906
X27.259Y107.339
X27.607Y107.932
X27.927Y108.437
X28.428Y109.158
X28.727Y109.529
X29.127Y109.941
X29.669Y110.382
X29.932Y110.542
X29.923Y110.571
X29.498Y111.311
Z12.700
G0X4.607Y63.040
G1Z-2.032F2032.0
X5.204Y62.706F4064.0
X5.741Y62.449
X5.860Y62.398
X6.265Y62.241
X6.612Y62.127
X7.308Y61.940
X7.710Y61.858
X8.367Y61.748
X9.520Y61.577
X10.559Y61.398
X12.338Y61.035
X13.743Y60.703
X15.134Y60.342
X16.527Y59.957
X18.664Y59.331
X19.626Y59.083
X20.214Y58.945
X20.841Y58.815
X21.227Y58.745
X21.714Y58.681
X22.382Y58.637
X23.100Y58.641
X23.865Y58.704
X24.167Y59.360
X24.294Y59.693
X24.530Y60.457
X24.687Y61.247
X24.745Y61.767
X24.764Y62.139
X24.934Y69.391
X24.981Y73.006
X25.004Y79.073
X24.990Y88.658
X24.997Y89.731
X25.044Y91.898
X25.153Y95.337
X25.220Y97.790
X25.282Y99.661
X25.312Y100.568
X25.326Y101.142
X25.412Y102.079
X25.508Y102.698
X25.601Y103.169
X25.781Y103.885
X26.004Y104.602
X26.274Y105.319
X26.471Y105.779
X26.753Y106.382
X27.026Y106.906
X27.259Y107.339
X27.607Y107.932
X27.927Y108.437
X28.428Y109.158
X28.727Y109.529
X29.127Y109.941
X29.669Y110.382
X29.932Y110.542
X29.923Y110.571
X29.498Y111.311
Z12.700
G0X4.607Y63.040
G1Z-3.048F2032.0
X5.204Y62.706F4064.0
X5.741Y62.449
X5.860Y62.398
X6.265Y62.241Z-3.039
X6.612Y62.127Z-2.960
X7.308Y61.940Z-2.859
X7.710Y61.858Z-2.828
X8.367Y61.748Z-2.808
X9.520Y61.577Z-2.811
X10.559Y61.398Z-2.814
X12.338Y61.035Z-2.802
X13.743Y60.703Z-2.791
X15.134Y60.342Z-2.786
X16.527Y59.957Z-2.793
X18.664Y59.331Z-2.845
X19.626Y59.083Z-2.925
X20.214Y58.945Z-2.996
X20.841Y58.815Z-3.048
X21.227Y58.745
X21.714Y58.681
X22.382Y58.637
X23.100Y58.641
X23.865Y58.704
X24.167Y59.360
X24.294Y59.693
X24.530Y60.457
X24.687Y61.247
X24.745Y61.767
X24.764Y62.139
X24.934Y69.391
X24.981Y73.006Z-3.021
X25.004Y79.073Z-2.998
X24.990Y88.658Z-3.012
X24.997Y89.731Z-3.005
X25.044Y91.898Z-2.958
X25.153Y95.337Z-2.849
X25.220Y97.790Z-2.794
X25.282Y99.661Z-2.808
X25.312Y100.568Z-2.856
X25.326Y101.142Z-2.910
X25.412Y102.079Z-2.968
X25.508Y102.698Z-2.992
X25.601Y103.169Z-3.006
X25.781Y103.885Z-3.016
X26.004Y104.602Z-3.018
X26.274Y105.319Z-3.015
X26.471Y105.779Z-3.008
X26.753Y106.382Z-2.999
X27.026Y106.906Z-2.987
X27.259Y107.339Z-2.985
X27.607Y107.932Z-2.981
X27.927Y108.437Z-2.979
X28.428Y109.158Z-2.980
X28.727Y109.529Z-2.997
X29.127Y109.941Z-3.048
X29.669Y110.382
X29.932Y110.542
X29.923Y110.571
X29.498Y111.311Z-2.347
Z12.700
G0X4.607Y63.040
G1Z-3.175F2032.0
X5.204Y62.706F4064.0
X5.741Y62.449
X5.860Y62.398Z-3.155
X6.265Y62.241Z-3.039
X6.612Y62.127Z-2.960
X7.308Y61.940Z-2.859
X7.710Y61.858Z-2.828
X8.367Y61.748Z-2.808
X9.520Y61.577Z-2.811
X10.559Y61.398Z-2.814
X12.338Y61.035Z-2.802
X13.743Y60.703Z-2.791
X15.134Y60.342Z-2.786
X16.527Y59.957Z-2.793
X18.664Y59.331Z-2.845
X19.626Y59.083Z-2.925
X20.214Y58.945Z-2.996
X20.841Y58.815Z-3.091
X21.227Y58.745Z-3.167
X21.714Y58.681Z-3.175
X22.382Y58.637
X23.100Y58.641
X23.865Y58.704
X24.167Y59.360
X24.294Y59.693
X24.530Y60.457
X24.687Y61.247
X24.745Y61.767
X24.764Y62.139
X24.934Y69.391Z-3.068
X24.981Y73.006Z-3.021
X25.004Y79.073Z-2.998
X24.990Y88.658Z-3.012
X24.997Y89.731Z-3.005
X25.044Y91.898Z-2.958
X25.153Y95.337Z-2.849
X25.220Y97.790Z-2.794
X25.282Y99.661Z-2.808
X25.312Y100.568Z-2.856
X25.326Y101.142Z-2.910
X25.412Y102.079Z-2.968
X25.508Y102.698Z-2.992
X25.601Y103.169Z-3.006
X25.781Y103.885Z-3.016
X26.004Y104.602Z-3.018
X26.274Y105.319Z-3.015
X26.471Y105.779Z-3.008
X26.753Y106.382Z-2.999
X27.026Y106.906Z-2.987
X27.259Y107.339Z-2.985
X27.607Y107.932Z-2.981
X27.927Y108.437Z-2.979
X28.428Y109.158Z-2.980
X28.727Y109.529Z-2.997
X29.127Y109.941Z-3.051
X29.669Y110.382Z-3.174
X29.932Y110.542Z-3.175
X29.923Y110.571
X29.498Y111.311Z-2.347
Z12.700
G0X29.533Y111.606
G1Z-1.016F2032.0
X29.905Y110.642F4064.0
X29.759Y111.364
Z12.700
G0X29.533Y111.606
G1Z-2.032F2032.0
X29.905Y110.642F4064.0
X29.759Y111.364
Z12.700
G0X29.533Y111.606
G1Z-2.097F2032.0
X29.905Y110.642Z-3.048F4064.0
X29.759Y111.364Z-2.393
Z12.700
G0X29.533Y111.606
G1Z-2.097F2032.0
X29.905Y110.642Z-3.127F4064.0
X29.759Y111.364Z-2.393
Z12.700
G0X29.923Y110.571
G1Z-1.016F2032.0
X29.905Y110.642F4064.0
Z12.700
G0X29.923Y110.571
G1Z-2.032F2032.0
X29.905Y110.642F4064.0
Z12.700
G0X29.923Y110.571
G1Z-3.048F2032.0
X29.905Y110.642F4064.0
Z12.700
G0X29.923Y110.571
G1Z-3.175F2032.0
X29.905Y110.642Z-3.127F4064.0
Z12.700
G0X29.870Y110.511
G1Z-1.016F2032.0
X29.569Y110.901F4064.0
Z12.700
G0X29.870Y110.511
G1Z-2.032F2032.0
X29.569Y110.901F4064.0
Z12.700
G0X29.870Y110.511
G1Z-3.048F2032.0
X29.569Y110.901Z-2.727F4064.0
Z12.700
G0X29.870Y110.511
G1Z-3.175F2032.0
X29.569Y110.901Z-2.727F4064.0
Z12.700
G0X29.738Y110.431
G1Z-1.016F2032.0
X29.617Y110.554F4064.0
Z12.700
G0X29.738Y110.431
G1Z-2.032F2032.0
X29.617Y110.554F4064.0
Z12.700
G0X29.738Y110.431
G1Z-3.048F2032.0
X29.617Y110.554Z-3.020F4064.0
Z12.700
G0X29.738Y110.431
G1Z-3.175F2032.0
X29.617Y110.554Z-3.020F4064.0
Z12.700
G0X31.731Y110.596
G1Z-1.016F2032.0
X32.211Y111.629F4064.0
X32.910Y113.180Z-0.586
Z12.700
G0X31.731Y110.596
G1Z-2.032F2032.0
X32.211Y111.629F4064.0
X32.910Y113.180Z-0.586
Z12.700
G0X31.731Y110.596
G1Z-3.048F2032.0
X32.211Y111.629Z-2.158F4064.0
X32.910Y113.180Z-0.586
Z12.700
G0X31.731Y110.596
G1Z-3.175F2032.0
X32.211Y111.629Z-2.158F4064.0
X32.910Y113.180Z-0.586
Z12.700
G0X32.900Y113.164
G1Z-0.605F2032.0
X32.915Y113.231Z-0.537F4064.0
Z12.700
G0X1.807Y154.978
G1Z-1.016F2032.0
X1.666Y154.715F4064.0
X1.418Y154.126
X1.025Y153.371
X0.755Y152.908
X0.011Y152.999
X-0.547Y153.040
X-0.796Y153.037
X-0.964Y153.014
X-1.187Y152.931
X-1.452Y152.786
X-1.838Y152.510
X-2.193Y152.212
X-2.573Y151.831
X-2.724Y151.656
X-2.916Y151.417
X-3.216Y150.980
X-3.415Y150.635
X-3.720Y150.049
X-4.276Y148.882
X-4.616Y148.091
X-4.991Y147.139
X-5.383Y145.996
X-5.599Y145.302
X-5.799Y144.578
X-5.880Y144.195
X-5.937Y143.785
X-5.976Y143.260
X-5.983Y142.697
X-5.962Y140.370
X-5.963Y125.570
X-5.975Y110.803
X-6.009Y96.030
X-6.094Y75.237
X-6.177Y65.798
X-6.141Y64.957
X-5.953Y63.090
X-6.532Y62.711
X-6.941Y62.475
X-7.529Y62.188
X-7.974Y62.007
X-8.280Y61.900
X-8.918Y61.721
X-10.199Y61.458
X-12.432Y60.985
X-14.397Y60.556
X-15.605Y60.277
X-16.401Y60.077
X-17.328Y59.820
X-18.271Y59.524
X-18.975Y59.280
X-19.605Y59.079
X-20.626Y58.791
X-21.349Y58.613
X-22.237Y58.416
X-23.446Y58.177
X-23.924Y58.110
X-24.301Y58.076
X-24.768Y58.057
X-25.491Y58.073
Z12.700
G0X1.807Y154.978
G1Z-1.359F2032.0
X1.666Y154.715Z-1.654F4064.0
X1.418Y154.126Z-2.032
X1.025Y153.371
X0.755Y152.908
X0.011Y152.999
X-0.547Y153.040
X-0.796Y153.037
X-0.964Y153.014
X-1.187Y152.931
X-1.452Y152.786
X-1.838Y152.510
X-2.193Y152.212
X-2.573Y151.831
X-2.724Y151.656
X-2.916Y151.417
X-3.216Y150.980
X-3.415Y150.635
X-3.720Y150.049
X-4.276Y148.882
X-4.616Y148.091
X-4.991Y147.139
X-5.383Y145.996
X-5.599Y145.302
X-5.799Y144.578
X-5.880Y144.195
X-5.937Y143.785
X-5.976Y143.260
X-5.983Y142.697
X-5.962Y140.370
X-5.963Y125.570
X-5.975Y110.803
X-6.009Y96.030
X-6.094Y75.237
X-6.177Y65.798
X-6.141Y64.957
X-5.953Y63.090
X-6.532Y62.711
X-6.941Y62.475
X-7.529Y62.188
X-7.974Y62.007
X-8.280Y61.900
X-8.918Y61.721
X-10.199Y61.458
X-12.432Y60.985
X-14.397Y60.556
X-15.605Y60.277
X-16.401Y60.077
X-17.328Y59.820
X-18.271Y59.524
X-18.975Y59.280
X-19.605Y59.079
X-20.626Y58.791
X-21.349Y58.613
X-22.237Y58.416
X-23.446Y58.177
X-23.924Y58.110
X-24.301Y58.076
X-24.768Y58.057
X-25.491Y58.073
Z12.700
G0X1.807Y154.978
G1Z-1.359F2032.0
X1.666Y154.715Z-1.654F4064.0
X1.418Y154.126Z-2.250
X1.025Y153.371Z-3.011
X0.755Y152.908Z-3.048
X0.011Y152.999
X-0.547Y153.040
X-0.796Y153.037
X-0.964Y153.014
X-1.187Y152.931
X-1.452Y152.786
X-1.838Y152.510
X-2.193Y152.212
X-2.573Y151.831
X-2.724Y151.656Z-3.038
X-2.916Y151.417Z-3.011
X-3.216Y150.980Z-2.989
X-3.415Y150.635
X-3.720Y150.049Z-3.004
X-4.276Y148.882Z-3.011
X-4.616Y148.091Z-3.007
X-4.991Y147.139Z-2.991
X-5.383Y145.996Z-2.980
X-5.599Y145.302Z-2.970
X-5.799Y144.578Z-2.981
X-5.880Y144.195Z-2.984
X-5.937Y143.785Z-2.981
X-5.976Y143.260Z-2.977
X-5.983Y142.697Z-2.978
X-5.962Y140.370Z-2.957
X-5.963Y125.570Z-2.958
X-5.975Y110.803Z-2.970
X-6.009Y96.030Z-3.004
X-6.094Y75.237Z-3.048
X-6.177Y65.798
X-6.141Y64.957
X-5.953Y63.090
X-6.532Y62.711
X-6.941Y62.475
X-7.529Y62.188
X-7.974Y62.007Z-2.995
X-8.280Y61.900Z-2.931
X-8.918Y61.721Z-2.842
X-10.199Y61.458Z-2.770
X-12.432Y60.985Z-2.698
X-14.397Y60.556Z-2.694
X-15.605Y60.277Z-2.712
X-16.401Y60.077Z-2.721
X-17.328Y59.820Z-2.723
X-18.271Y59.524Z-2.707
X-18.975Y59.280Z-2.686
X-19.605Y59.079Z-2.691
X-20.626Y58.791Z-2.750
X-21.349Y58.613Z-2.826
X-22.237Y58.416Z-2.953
X-23.446Y58.177Z-3.048
X-23.924Y58.110
X-24.301Y58.076
X-24.768Y58.057
X-25.491Y58.073
Z12.700
G0X1.807Y154.978
G1Z-1.359F2032.0
X1.666Y154.715Z-1.654F4064.0
X1.418Y154.126Z-2.250
X1.025Y153.371Z-3.011
X0.755Y152.908Z-3.175
X0.011Y152.999
X-0.547Y153.040
X-0.796Y153.037
X-0.964Y153.014
X-1.187Y152.931
X-1.452Y152.786
X-1.838Y152.510
X-2.193Y152.212Z-3.155
X-2.573Y151.831Z-3.066
X-2.724Y151.656Z-3.038
X-2.916Y151.417Z-3.011
X-3.216Y150.980Z-2.989
X-3.415Y150.635
X-3.720Y150.049Z-3.004
X-4.276Y148.882Z-3.011
X-4.616Y148.091Z-3.007
X-4.991Y147.139Z-2.991
X-5.383Y145.996Z-2.980
X-5.599Y145.302Z-2.970
X-5.799Y144.578Z-2.981
X-5.880Y144.195Z-2.984
X-5.937Y143.785Z-2.981
X-5.976Y143.260Z-2.977
X-5.983Y142.697Z-2.978
X-5.962Y140.370Z-2.957
X-5.963Y125.570Z-2.958
X-5.975Y110.803Z-2.970
X-6.009Y96.030Z-3.004
X-6.094Y75.237Z-3.089
X-6.177Y65.798Z-3.174
X-6.141Y64.957Z-3.175
X-5.953Y63.090
X-6.532Y62.711
X-6.941Y62.475
X-7.529Y62.188Z-3.123
X-7.974Y62.007Z-2.995
X-8.280Y61.900Z-2.931
X-8.918Y61.721Z-2.842
X-10.199Y61.458Z-2.770
X-12.432Y60.985Z-2.698
X-14.397Y60.556Z-2.694
X-15.605Y60.277Z-2.712
X-16.401Y60.077Z-2.721
X-17.328Y59.820Z-2.723
X-18.271Y59.524Z-2.707
X-18.975Y59.280Z-2.686
X-19.605Y59.079Z-2.691
X-20.626Y58.791Z-2.750
X-21.349Y58.613Z-2.826
X-22.237Y58.416Z-2.953
X-23.446Y58.177Z-3.175
X-23.924Y58.110
X-24.301Y58.076
X-24.768Y58.057
X-25.491Y58.073
Z12.700
G0X-36.654Y51.484
G1Z-1.016F2032.0
X-36.986Y52.126F4064.0
X-37.261Y52.805
X-37.421Y53.324
X-37.533Y53.842
X-37.599Y54.360
X-37.618Y54.877
X-37.514Y67.130
X-37.471Y75.710
X-37.451Y84.291
Y90.023
X-37.470Y98.592
X-37.458Y99.493
X-37.412Y100.262
X-37.310Y101.048
X-37.153Y101.815
X-36.959Y102.512
X-36.687Y103.310
X-36.285Y104.351
X-35.944Y105.119
X-35.622Y105.800
X-35.080Y106.806
X-34.631Y107.531
X-34.166Y108.198
X-33.865Y108.584
X-33.575Y108.886
X-33.349Y109.081
X-33.185Y109.200
X-32.974Y109.337
X-32.717Y109.472
X-32.333Y109.620
X-32.098Y109.684
X-31.755Y109.739
X-31.795Y109.975
Z12.700
G0X-36.654Y51.484
G1Z-2.032F2032.0
X-36.986Y52.126F4064.0
X-37.261Y52.805
X-37.421Y53.324
X-37.533Y53.842
X-37.599Y54.360
X-37.618Y54.877
X-37.514Y67.130
X-37.471Y75.710
X-37.451Y84.291
Y90.023
X-37.470Y98.592
X-37.458Y99.493
X-37.412Y100.262
X-37.310Y101.048
X-37.153Y101.815
X-36.959Y102.512
X-36.687Y103.310
X-36.285Y104.351
X-35.944Y105.119
X-35.622Y105.800
X-35.080Y106.806
X-34.631Y107.531
X-34.166Y108.198
X-33.865Y108.584
X-33.575Y108.886
X-33.349Y109.081
X-33.185Y109.200
X-32.974Y109.337
X-32.717Y109.472
X-32.333Y109.620
X-32.098Y109.684
X-31.755Y109.739
X-31.795Y109.975
Z12.700
G0X-36.654Y51.484
G1Z-3.048F2032.0
X-36.986Y52.126F4064.0
X-37.261Y52.805
X-37.421Y53.324
X-37.533Y53.842Z-2.929
X-37.599Y54.360Z-2.852
X-37.618Y54.877Z-2.823
X-37.514Y67.130Z-2.721
X-37.471Y75.710Z-2.678
X-37.451Y84.291Z-2.658
Y90.023
X-37.470Y98.592Z-2.677
X-37.458Y99.493Z-2.665
X-37.412Y100.262Z-2.648
X-37.310Y101.048Z-2.639
X-37.153Y101.815Z-2.644
X-36.959Y102.512Z-2.657
X-36.687Y103.310Z-2.672
X-36.285Y104.351Z-2.662
X-35.944Y105.119Z-2.648
X-35.622Y105.800Z-2.652
X-35.080Y106.806Z-2.679
X-34.631Y107.531Z-2.721
X-34.166Y108.198Z-2.775
X-33.865Y108.584Z-2.821
X-33.575Y108.886Z-2.868
X-33.349Y109.081Z-2.907
X-33.185Y109.200Z-2.933
X-32.974Y109.337Z-2.968
X-32.717Y109.472Z-3.008
X-32.333Y109.620Z-3.048
X-32.098Y109.684
X-31.755Y109.739
X-31.795Y109.975Z-2.897
Z12.700
G0X-36.654Y51.484
G1Z-3.175F2032.0
X-36.986Y52.126F4064.0
X-37.261Y52.805
X-37.421Y53.324Z-3.051
X-37.533Y53.842Z-2.929
X-37.599Y54.360Z-2.852
X-37.618Y54.877Z-2.823
X-37.514Y67.130Z-2.721
X-37.471Y75.710Z-2.678
X-37.451Y84.291Z-2.658
Y90.023
X-37.470Y98.592Z-2.677
X-37.458Y99.493Z-2.665
X-37.412Y100.262Z-2.648
X-37.310Y101.048Z-2.639
X-37.153Y101.815Z-2.644
X-36.959Y102.512Z-2.657
X-36.687Y103.310Z-2.672
X-36.285Y104.351Z-2.662
X-35.944Y105.119Z-2.648
X-35.622Y105.800Z-2.652
X-35.080Y106.806Z-2.679
X-34.631Y107.531Z-2.721
X-34.166Y108.198Z-2.775
X-33.865Y108.584Z-2.821
X-33.575Y108.886Z-2.868
X-33.349Y109.081Z-2.907
X-33.185Y109.200Z-2.933
X-32.974Y109.337Z-2.968
X-32.717Y109.472Z-3.008
X-32.333Y109.620Z-3.063
X-32.098Y109.684Z-3.095
X-31.755Y109.739Z-3.136
X-31.795Y109.975Z-2.897
Z12.700
G0X35.171Y52.186
G1Z-1.016F2032.0
X35.411Y52.563F4064.0
X35.713Y53.100
X35.981Y53.683
X36.143Y54.114
X36.283Y54.596
X36.368Y54.988
X36.440Y55.516
X36.476Y56.139
Y97.484
X36.453Y98.806
X36.393Y99.859
X36.330Y100.493
X36.248Y101.096
X36.024Y102.350
X35.761Y103.479
X35.433Y104.610
X35.249Y105.163
X34.957Y105.948
X34.546Y106.918
X34.134Y107.762
X33.600Y108.713
X33.282Y109.193
X32.921Y109.631
X32.528Y110.015
X32.317Y110.192
X31.843Y110.528
X31.731Y110.596
X30.994Y110.650
X30.723Y110.645
X30.473Y110.626
X29.932Y110.542
Z12.700
G0X35.171Y52.186
G1Z-2.032F2032.0
X35.411Y52.563F4064.0
X35.713Y53.100
X35.981Y53.683
X36.143Y54.114
X36.283Y54.596
X36.368Y54.988
X36.440Y55.516
X36.476Y56.139
Y97.484
X36.453Y98.806
X36.393Y99.859
X36.330Y100.493
X36.248Y101.096
X36.024Y102.350
X35.761Y103.479
X35.433Y104.610
X35.249Y105.163
X34.957Y105.948
X34.546Y106.918
X34.134Y107.762
X33.600Y108.713
X33.282Y109.193
X32.921Y109.631
X32.528Y110.015
X32.317Y110.192
X31.843Y110.528
X31.731Y110.596
X30.994Y110.650
X30.723Y110.645
X30.473Y110.626
X29.932Y110.542
Z12.700
G0X35.171Y52.186
G1Z-3.048F2032.0
X35.411Y52.563F4064.0
X35.713Y53.100
X35.981Y53.683
X36.143Y54.114Z-3.013
X36.283Y54.596Z-2.873
X36.368Y54.988Z-2.788
X36.440Y55.516Z-2.716
X36.476Y56.139Z-2.680
Y97.484
X36.453Y98.806Z-2.700
X36.393Y99.859Z-2.725
X36.330Y100.493Z-2.741
X36.248Y101.096Z-2.757
X36.024Y102.350Z-2.794
X35.761Y103.479Z-2.812
X35.433Y104.610Z-2.817
X35.249Y105.163Z-2.819
X34.957Y105.948Z-2.818
X34.546Y106.918Z-2.817
X34.134Y107.762Z-2.814
X33.600Y108.713Z-2.806
X33.282Y109.193Z-2.818
X32.921Y109.631Z-2.868
X32.528Y110.015Z-2.955
X32.317Y110.192Z-3.012
X31.843Y110.528Z-3.048
X31.731Y110.596
X30.994Y110.650
X30.723Y110.645
X30.473Y110.626
X29.932Y110.542
Z12.700
G0X35.171Y52.186
G1Z-3.175F2032.0
X35.411Y52.563F4064.0
X35.713Y53.100
X35.981Y53.683
X36.143Y54.114Z-3.013
X36.283Y54.596Z-2.873
X36.368Y54.988Z-2.788
X36.440Y55.516Z-2.716
X36.476Y56.139Z-2.680
Y97.484
X36.453Y98.806Z-2.700
X36.393Y99.859Z-2.725
X36.330Y100.493Z-2.741
X36.248Y101.096Z-2.757
X36.024Y102.350Z-2.794
X35.761Y103.479Z-2.812
X35.433Y104.610Z-2.817
X35.249Y105.163Z-2.819
X34.957Y105.948Z-2.818
X34.546Y106.918Z-2.817
X34.134Y107.762Z-2.814
X33.600Y108.713Z-2.806
X33.282Y109.193Z-2.818
X32.921Y109.631Z-2.868
X32.528Y110.015Z-2.955
X32.317Y110.192Z-3.012
X31.843Y110.528Z-3.164
X31.731Y110.596Z-3.175
X30.994Y110.650Z-3.168
X30.723Y110.645Z-3.172
X30.473Y110.626Z-3.175
X29.932Y110.542
Z12.700
G0X34.762Y-52.995
G1Z-1.016F2032.0
X34.975Y-53.390F4064.0
X35.304Y-54.120
X35.436Y-54.483
X35.568Y-54.930
X35.687Y-55.447
X35.760Y-55.961
X35.799Y-56.562
X35.803Y-56.849
X35.721Y-64.377
X35.691Y-68.271
X35.654Y-76.028
X35.645Y-85.784
X35.666Y-95.708
X35.654Y-98.264
X35.637Y-98.648
X35.563Y-99.607
X35.396Y-101.144
X35.251Y-102.123
X35.106Y-102.933
X34.938Y-103.711
X34.733Y-104.512
X34.502Y-105.292
X34.246Y-106.028
X33.974Y-106.716
X33.629Y-107.480
X33.267Y-108.185
X32.982Y-108.688
X32.715Y-109.120
X32.199Y-109.865
X31.949Y-110.186
X31.701Y-110.465
X31.386Y-110.781
X31.070Y-111.051
X30.767Y-111.273
Z12.700
G0X34.762Y-52.995
G1Z-2.032F2032.0
X34.975Y-53.390F4064.0
X35.304Y-54.120
X35.436Y-54.483
X35.568Y-54.930
X35.687Y-55.447
X35.760Y-55.961
X35.799Y-56.562
X35.803Y-56.849
X35.721Y-64.377
X35.691Y-68.271
X35.654Y-76.028
X35.645Y-85.784
X35.666Y-95.708
X35.654Y-98.264
X35.637Y-98.648
X35.563Y-99.607
X35.396Y-101.144
X35.251Y-102.123
X35.106Y-102.933
X34.938Y-103.711
X34.733Y-104.512
X34.502Y-105.292
X34.246Y-106.028
X33.974Y-106.716
X33.629Y-107.480
X33.267Y-108.185
X32.982Y-108.688
X32.715Y-109.120
X32.199Y-109.865
X31.949Y-110.186
X31.701Y-110.465
X31.386Y-110.781
X31.070Y-111.051
X30.767Y-111.273
Z12.700
G0X34.762Y-52.995
G1Z-3.048F2032.0
X34.975Y-53.390F4064.0
X35.304Y-54.120
X35.436Y-54.483
X35.568Y-54.930
X35.687Y-55.447
X35.760Y-55.961Z-2.965
X35.799Y-56.562Z-2.908
X35.803Y-56.849Z-2.897
X35.721Y-64.377Z-2.812
X35.691Y-68.271Z-2.782
X35.654Y-76.028Z-2.744
X35.645Y-85.784Z-2.735
X35.666Y-95.708Z-2.757
X35.654Y-98.264Z-2.745
X35.637Y-98.648Z-2.756
X35.563Y-99.607Z-2.814
X35.396Y-101.144Z-2.864
X35.251Y-102.123Z-2.885
X35.106Y-102.933Z-2.893
X34.938Y-103.711Z-2.897
X34.733Y-104.512Z-2.901
X34.502Y-105.292Z-2.900
X34.246Y-106.028Z-2.901
X33.974Y-106.716
X33.629Y-107.480Z-2.906
X33.267Y-108.185Z-2.911
X32.982Y-108.688Z-2.915
X32.715Y-109.120Z-2.923
X32.199Y-109.865Z-2.945
X31.949Y-110.186Z-2.963
X31.701Y-110.465Z-2.994
X31.386Y-110.781Z-3.047
X31.070Y-111.051Z-3.048
X30.767Y-111.273
Z12.700
G0X34.762Y-52.995
G1Z-3.175F2032.0
X34.975Y-53.390F4064.0
X35.304Y-54.120
X35.436Y-54.483
X35.568Y-54.930
X35.687Y-55.447Z-3.053
X35.760Y-55.961Z-2.965
X35.799Y-56.562Z-2.908
X35.803Y-56.849Z-2.897
X35.721Y-64.377Z-2.812
X35.691Y-68.271Z-2.782
X35.654Y-76.028Z-2.744
X35.645Y-85.784Z-2.735
X35.666Y-95.708Z-2.757
X35.654Y-98.264Z-2.745
X35.637Y-98.648Z-2.756
X35.563Y-99.607Z-2.814
X35.396Y-101.144Z-2.864
X35.251Y-102.123Z-2.885
X35.106Y-102.933Z-2.893
X34.938Y-103.711Z-2.897
X34.733Y-104.512Z-2.901
X34.502Y-105.292Z-2.900
X34.246Y-106.028Z-2.901
X33.974Y-106.716
X33.629Y-107.480Z-2.906
X33.267Y-108.185Z-2.911
X32.982Y-108.688Z-2.915
X32.715Y-109.120Z-2.923
X32.199Y-109.865Z-2.945
X31.949Y-110.186Z-2.963
X31.701Y-110.465Z-2.994
X31.386Y-110.781Z-3.047
X31.070Y-111.051Z-3.119
X30.767Y-111.273Z-3.175
Z12.700
G0X30.326Y-111.446
G1Z-1.016F2032.0
X30.590Y-111.363F4064.0
X30.767Y-111.273
X30.788Y-111.295
X31.006Y-111.531
Z12.700
G0X30.326Y-111.446
G1Z-2.032F2032.0
X30.590Y-111.363F4064.0
X30.767Y-111.273
X30.788Y-111.295
X31.006Y-111.531
Z12.700
G0X30.326Y-111.446
G1Z-3.048F2032.0
X30.590Y-111.363F4064.0
X30.767Y-111.273
X30.788Y-111.295
X31.006Y-111.531Z-2.852
Z12.700
G0X30.326Y-111.446
G1Z-3.175F2032.0
X30.590Y-111.363F4064.0
X30.767Y-111.273
X30.788Y-111.295Z-3.172
X31.006Y-111.531Z-2.852
Z12.700
G0X30.094Y-111.481
G1Z-1.016F2032.0
X30.099Y-111.778F4064.0
Z12.700
G0X30.094Y-111.481
G1Z-2.032F2032.0
X30.099Y-111.778F4064.0
Z12.700
G0X30.094Y-111.481
G1Z-3.048F2032.0
X30.099Y-111.778Z-2.933F4064.0
Z12.700
G0X30.094Y-111.481
G1Z-3.175F2032.0
X30.099Y-111.778Z-2.933F4064.0
Z12.700
G0X24.440Y-102.791
G1Z-1.016F2032.0
X24.509Y-103.154F4064.0
X24.652Y-103.780
X24.852Y-104.552
X25.084Y-105.326
X25.444Y-106.332
X25.726Y-107.003
X26.140Y-107.856
X26.502Y-108.502
X27.099Y-109.442
X27.385Y-109.851
X27.717Y-110.246
X28.152Y-110.662
X28.359Y-110.824
X28.653Y-111.016
X29.036Y-111.220
X29.280Y-111.323
X29.708Y-111.463
X29.983Y-111.486
X30.326Y-111.446
X30.386Y-111.731
Z12.700
G0X24.440Y-102.791
G1Z-2.032F2032.0
X24.509Y-103.154F4064.0
X24.652Y-103.780
X24.852Y-104.552
X25.084Y-105.326
X25.444Y-106.332
X25.726Y-107.003
X26.140Y-107.856
X26.502Y-108.502
X27.099Y-109.442
X27.385Y-109.851
X27.717Y-110.246
X28.152Y-110.662
X28.359Y-110.824
X28.653Y-111.016
X29.036Y-111.220
X29.280Y-111.323
X29.708Y-111.463
X29.983Y-111.486
X30.326Y-111.446
X30.386Y-111.731
Z12.700
G0X24.440Y-102.791
G1Z-2.564F2032.0
X24.509Y-103.154Z-2.547F4064.0
X24.652Y-103.780Z-2.540
X24.852Y-104.552
X25.084Y-105.326Z-2.539
X25.444Y-106.332Z-2.546
X25.726Y-107.003Z-2.558
X26.140Y-107.856Z-2.577
X26.502Y-108.502Z-2.597
X27.099Y-109.442Z-2.625
X27.385Y-109.851Z-2.633
X27.717Y-110.246Z-2.669
X28.152Y-110.662Z-2.755
X28.359Y-110.824Z-2.804
X28.653Y-111.016Z-2.878
X29.036Y-111.220Z-2.980
X29.280Y-111.323Z-3.048
X29.708Y-111.463
X29.983Y-111.486
X30.326Y-111.446
X30.386Y-111.731Z-2.947
Z12.700
G0X24.440Y-102.791
G1Z-2.564F2032.0
X24.509Y-103.154Z-2.547F4064.0
X24.652Y-103.780Z-2.540
X24.852Y-104.552
X25.084Y-105.326Z-2.539
X25.444Y-106.332Z-2.546
X25.726Y-107.003Z-2.558
X26.140Y-107.856Z-2.577
X26.502Y-108.502Z-2.597
X27.099Y-109.442Z-2.625
X27.385Y-109.851Z-2.633
X27.717Y-110.246Z-2.669
X28.152Y-110.662Z-2.755
X28.359Y-110.824Z-2.804
X28.653Y-111.016Z-2.878
X29.036Y-111.220Z-2.980
X29.280Y-111.323Z-3.048
X29.708Y-111.463Z-3.175
X29.983Y-111.486
X30.326Y-111.446
X30.386Y-111.731Z-2.947
Z12.700
G0X24.287Y-102.811
G1Z-1.016F2032.0
X24.440Y-102.791F4064.0
X24.419Y-86.492
X24.396Y-80.040
X24.366Y-75.809
X24.287Y-67.888
X24.247Y-62.313
X24.220Y-61.750
X24.145Y-61.179
X24.040Y-60.679
X23.918Y-60.260
X23.727Y-59.720
X23.422Y-58.958
Z12.700
G0X24.287Y-102.811
G1Z-2.032F2032.0
X24.440Y-102.791F4064.0
X24.419Y-86.492
X24.396Y-80.040
X24.366Y-75.809
X24.287Y-67.888
X24.247Y-62.313
X24.220Y-61.750
X24.145Y-61.179
X24.040Y-60.679
X23.918Y-60.260
X23.727Y-59.720
X23.422Y-58.958
Z12.700
G0X24.287Y-102.811
G1Z-2.411F2032.0
X24.440Y-102.791Z-2.564F4064.0
X24.419Y-86.492Z-2.580
X24.396Y-80.040Z-2.603
X24.366Y-75.809Z-2.634
X24.287Y-67.888Z-2.739
X24.247Y-62.313Z-2.830
X24.220Y-61.750Z-2.865
X24.145Y-61.179Z-2.948
X24.040Y-60.679Z-3.048
X23.918Y-60.260
X23.727Y-59.720
X23.422Y-58.958
Z12.700
G0X24.287Y-102.811
G1Z-2.411F2032.0
X24.440Y-102.791Z-2.564F4064.0
X24.419Y-86.492Z-2.580
X24.396Y-80.040Z-2.603
X24.366Y-75.809Z-2.634
X24.287Y-67.888Z-2.739
X24.247Y-62.313Z-2.830
X24.220Y-61.750Z-2.865
X24.145Y-61.179Z-2.948
X24.040Y-60.679Z-3.060
X23.918Y-60.260Z-3.175
X23.727Y-59.720
X23.422Y-58.958
Z12.700
G0X4.354Y-63.591
G1Z-1.016F2032.0
X4.501Y-65.033F4064.0
X4.534Y-65.418
X4.564Y-65.844
X4.578Y-66.477
X4.475Y-80.125
X4.395Y-98.421
X4.359Y-121.275
X4.355Y-138.687
X4.340Y-139.293
X4.287Y-139.971
X4.179Y-140.683
X4.143Y-141.045
X4.068Y-142.292
X4.007Y-142.984
X3.835Y-144.188
X3.649Y-145.162
X3.431Y-146.083
X3.132Y-147.122
X2.877Y-147.874
X2.540Y-148.739
X2.086Y-149.746
X1.865Y-150.188
X1.401Y-151.039
X1.225Y-151.332
X1.049Y-151.609
X0.795Y-151.944
X0.579Y-152.190
X0.238Y-152.508
X0.010Y-152.685
X-0.339Y-152.927
X-0.482Y-153.008
X-0.689Y-153.097
Z12.700
G0X4.354Y-63.591
G1Z-2.032F2032.0
X4.501Y-65.033F4064.0
X4.534Y-65.418
X4.564Y-65.844
X4.578Y-66.477
X4.475Y-80.125
X4.395Y-98.421
X4.359Y-121.275
X4.355Y-138.687
X4.340Y-139.293
X4.287Y-139.971
X4.179Y-140.683
X4.143Y-141.045
X4.068Y-142.292
X4.007Y-142.984
X3.835Y-144.188
X3.649Y-145.162
X3.431Y-146.083
X3.132Y-147.122
X2.877Y-147.874
X2.540Y-148.739
X2.086Y-149.746
X1.865Y-150.188
X1.401Y-151.039
X1.225Y-151.332
X1.049Y-151.609
X0.795Y-151.944
X0.579Y-152.190
X0.238Y-152.508
X0.010Y-152.685
X-0.339Y-152.927
X-0.482Y-153.008
X-0.689Y-153.097
Z12.700
G0X4.354Y-63.591
G1Z-3.048F2032.0
X4.501Y-65.033F4064.0
X4.534Y-65.418
X4.564Y-65.844Z-3.043
X4.578Y-66.477Z-3.011
X4.475Y-80.125Z-2.909
X4.395Y-98.421Z-2.829
X4.359Y-121.275Z-2.793
X4.355Y-138.687Z-2.790
X4.340Y-139.293Z-2.805
X4.287Y-139.971Z-2.852
X4.179Y-140.683Z-2.943
X4.143Y-141.045Z-2.966
X4.068Y-142.292Z-2.955
X4.007Y-142.984Z-2.942
X3.835Y-144.188
X3.649Y-145.162Z-2.939
X3.431Y-146.083Z-2.937
X3.132Y-147.122Z-2.938
X2.877Y-147.874Z-2.933
X2.540Y-148.739Z-2.929
X2.086Y-149.746Z-2.923
X1.865Y-150.188Z-2.921
X1.401Y-151.039Z-2.908
X1.225Y-151.332Z-2.913
X1.049Y-151.609Z-2.939
X0.795Y-151.944Z-2.987
X0.579Y-152.190Z-3.029
X0.238Y-152.508Z-3.048
X0.010Y-152.685
X-0.339Y-152.927
X-0.482Y-153.008
X-0.689Y-153.097
Z12.700
G0X4.354Y-63.591
G1Z-3.175F2032.0
X4.501Y-65.033F4064.0
X4.534Y-65.418Z-3.096
X4.564Y-65.844Z-3.043
X4.578Y-66.477Z-3.011
X4.475Y-80.125Z-2.909
X4.395Y-98.421Z-2.829
X4.359Y-121.275Z-2.793
X4.355Y-138.687Z-2.790
X4.340Y-139.293Z-2.805
X4.287Y-139.971Z-2.852
X4.179Y-140.683Z-2.943
X4.143Y-141.045Z-2.966
X4.068Y-142.292Z-2.955
X4.007Y-142.984Z-2.942
X3.835Y-144.188
X3.649Y-145.162Z-2.939
X3.431Y-146.083Z-2.937
X3.132Y-147.122Z-2.938
X2.877Y-147.874Z-2.933
X2.540Y-148.739Z-2.929
X2.086Y-149.746Z-2.923
X1.865Y-150.188Z-2.921
X1.401Y-151.039Z-2.908
X1.225Y-151.332Z-2.913
X1.049Y-151.609Z-2.939
X0.795Y-151.944Z-2.987
X0.579Y-152.190Z-3.029
X0.238Y-152.508Z-3.104
X0.010Y-152.685Z-3.156
X-0.339Y-152.927Z-3.175
X-0.482Y-153.008
X-0.689Y-153.097
Z12.700
G0X-1.159Y-153.194
G1Z-1.016F2032.0
X-0.930Y-153.161F4064.0
X-0.689Y-153.097
X-0.562Y-153.361
Z12.700
G0X-1.159Y-153.194
G1Z-2.032F2032.0
X-0.930Y-153.161F4064.0
X-0.689Y-153.097
X-0.562Y-153.361
Z12.700
G0X-1.159Y-153.194
G1Z-3.048F2032.0
X-0.930Y-153.161F4064.0
X-0.689Y-153.097
X-0.562Y-153.361Z-3.019
Z12.700
G0X-1.159Y-153.194
G1Z-3.175F2032.0
X-0.930Y-153.161F4064.0
X-0.689Y-153.097
X-0.562Y-153.361Z-3.019
Z12.700
G0X-1.302Y-153.199
G1Z-1.016F2032.0
X-1.159Y-153.194F4064.0
X-1.142Y-153.526
Z12.700
G0X-1.302Y-153.199
G1Z-2.032F2032.0
X-1.159Y-153.194F4064.0
X-1.142Y-153.526
Z12.700
G0X-1.302Y-153.199
G1Z-3.048F2032.0
X-1.159Y-153.194F4064.0
X-1.142Y-153.526Z-3.003
Z12.700
G0X-1.302Y-153.199
G1Z-3.175F2032.0
X-1.159Y-153.194F4064.0
X-1.142Y-153.526Z-3.003
Z12.700
G0X-1.419Y-153.193
G1Z-1.016F2032.0
X-1.550Y-153.759F4064.0
Z12.700
G0X-1.419Y-153.193
G1Z-2.032F2032.0
X-1.550Y-153.759F4064.0
Z12.700
G0X-1.419Y-153.193
G1Z-3.048F2032.0
X-1.550Y-153.759Z-2.736F4064.0
Z12.700
G0X-1.419Y-153.193
G1Z-3.175F2032.0
X-1.550Y-153.759Z-2.736F4064.0
Z12.700
G0X-1.537Y-153.176
G1Z-1.016F2032.0
X-1.635Y-153.433F4064.0
Z12.700
G0X-1.537Y-153.176
G1Z-2.032F2032.0
X-1.635Y-153.433F4064.0
Z12.700
G0X-1.537Y-153.176
G1Z-3.048F2032.0
X-1.635Y-153.433Z-3.022F4064.0
Z12.700
G0X-1.537Y-153.176
G1Z-3.175F2032.0
X-1.635Y-153.433Z-3.022F4064.0
Z12.700
G0X-6.887Y-144.419
G1Z-1.016F2032.0
X-6.772Y-145.228F4064.0
X-6.661Y-145.782
X-6.499Y-146.376
X-6.262Y-147.118
X-5.950Y-147.940
X-5.649Y-148.641
X-5.023Y-149.954
X-4.766Y-150.411
X-4.425Y-150.915
X-4.082Y-151.346
X-3.684Y-151.783
X-3.253Y-152.198
X-3.018Y-152.396
X-2.825Y-152.550
X-2.541Y-152.736
X-2.029Y-152.989
X-1.915Y-153.037
X-1.597Y-153.161
X-1.302Y-153.199
X-1.344Y-153.689
Z12.700
G0X-6.887Y-144.419
G1Z-2.032F2032.0
X-6.772Y-145.228F4064.0
X-6.661Y-145.782
X-6.499Y-146.376
X-6.262Y-147.118
X-5.950Y-147.940
X-5.649Y-148.641
X-5.023Y-149.954
X-4.766Y-150.411
X-4.425Y-150.915
X-4.082Y-151.346
X-3.684Y-151.783
X-3.253Y-152.198
X-3.018Y-152.396
X-2.825Y-152.550
X-2.541Y-152.736
X-2.029Y-152.989
X-1.915Y-153.037
X-1.597Y-153.161
X-1.302Y-153.199
X-1.344Y-153.689
Z12.700
G0X-6.887Y-144.419
G1Z-2.571F2032.0
X-6.772Y-145.228Z-2.529F4064.0
X-6.661Y-145.782Z-2.519
X-6.499Y-146.376Z-2.524
X-6.262Y-147.118Z-2.534
X-5.950Y-147.940Z-2.541
X-5.649Y-148.641Z-2.545
X-5.023Y-149.954Z-2.515
X-4.766Y-150.411Z-2.512
X-4.425Y-150.915Z-2.543
X-4.082Y-151.346Z-2.600
X-3.684Y-151.783Z-2.685
X-3.253Y-152.198Z-2.797
X-3.018Y-152.396Z-2.867
X-2.825Y-152.550Z-2.930
X-2.541Y-152.736Z-3.012
X-2.029Y-152.989Z-3.048
X-1.915Y-153.037
X-1.597Y-153.161
X-1.302Y-153.199
X-1.344Y-153.689Z-2.837
Z12.700
G0X-6.887Y-144.419
G1Z-2.571F2032.0
X-6.772Y-145.228Z-2.529F4064.0
X-6.661Y-145.782Z-2.519
X-6.499Y-146.376Z-2.524
X-6.262Y-147.118Z-2.534
X-5.950Y-147.940Z-2.541
X-5.649Y-148.641Z-2.545
X-5.023Y-149.954Z-2.515
X-4.766Y-150.411Z-2.512
X-4.425Y-150.915Z-2.543
X-4.082Y-151.346Z-2.600
X-3.684Y-151.783Z-2.685
X-3.253Y-152.198Z-2.797
X-3.018Y-152.396Z-2.867
X-2.825Y-152.550Z-2.930
X-2.541Y-152.736Z-3.012
X-2.029Y-152.989Z-3.149
X-1.915Y-153.037Z-3.175
X-1.597Y-153.161
X-1.302Y-153.199
X-1.344Y-153.689Z-2.837
Z12.700
G0X-7.745Y-144.586
G1Z-1.016F2032.0
X-6.887Y-144.419F4064.0
X-6.913Y-143.610
X-6.947Y-139.030
X-6.994Y-129.353
X-7.016Y-119.621
X-7.021Y-104.929
X-7.129Y-80.811
X-7.155Y-71.011
X-7.182Y-65.959
X-7.168Y-65.552
X-7.133Y-65.125
X-7.080Y-64.650
X-7.054Y-64.439
X-6.918Y-63.307
X-7.319Y-63.036
X-7.741Y-62.783
X-8.324Y-62.485
X-8.912Y-62.239
X-9.559Y-62.034
X-9.941Y-61.939
X-10.871Y-61.740
X-12.577Y-61.339
X-13.036Y-61.237
X-13.881Y-61.062
X-14.927Y-60.803
X-15.997Y-60.498
X-17.146Y-60.140
X-18.376Y-59.741
X-19.258Y-59.454
X-20.545Y-59.050
X-21.558Y-58.737
X-23.128Y-58.265
X-23.500Y-58.165
X-24.108Y-58.044
X-24.852Y-57.963
X-25.571Y-57.953
X-26.002Y-57.974
Z12.700
G0X-7.745Y-144.586
G1Z-1.700F2032.0
X-6.887Y-144.419Z-2.032F4064.0
X-6.913Y-143.610
X-6.947Y-139.030
X-6.994Y-129.353
X-7.016Y-119.621
X-7.021Y-104.929
X-7.129Y-80.811
X-7.155Y-71.011
X-7.182Y-65.959
X-7.168Y-65.552
X-7.133Y-65.125
X-7.080Y-64.650
X-7.054Y-64.439
X-6.918Y-63.307
X-7.319Y-63.036
X-7.741Y-62.783
X-8.324Y-62.485
X-8.912Y-62.239
X-9.559Y-62.034
X-9.941Y-61.939
X-10.871Y-61.740
X-12.577Y-61.339
X-13.036Y-61.237
X-13.881Y-61.062
X-14.927Y-60.803
X-15.997Y-60.498
X-17.146Y-60.140
X-18.376Y-59.741
X-19.258Y-59.454
X-20.545Y-59.050
X-21.558Y-58.737
X-23.128Y-58.265
X-23.500Y-58.165
X-24.108Y-58.044
X-24.852Y-57.963
X-25.571Y-57.953
X-26.002Y-57.974
Z12.700
G0X-7.745Y-144.586
G1Z-1.700F2032.0
X-6.887Y-144.419Z-2.571F4064.0
X-6.913Y-143.610Z-2.569
X-6.947Y-139.030Z-2.603
X-6.994Y-129.353Z-2.650
X-7.016Y-119.621Z-2.672
X-7.021Y-104.929Z-2.677
X-7.129Y-80.811Z-2.813
X-7.155Y-71.011Z-2.886
X-7.182Y-65.959Z-2.956
X-7.168Y-65.552Z-2.974
X-7.133Y-65.125Z-3.015
X-7.080Y-64.650Z-3.048
X-7.054Y-64.439
X-6.918Y-63.307
X-7.319Y-63.036
X-7.741Y-62.783
X-8.324Y-62.485Z-3.008
X-8.912Y-62.239Z-2.851
X-9.559Y-62.034Z-2.747
X-9.941Y-61.939Z-2.720
X-10.871Y-61.740Z-2.685
X-12.577Y-61.339Z-2.629
X-13.036Y-61.237Z-2.624
X-13.881Y-61.062Z-2.644
X-14.927Y-60.803Z-2.639
X-15.997Y-60.498Z-2.612
X-17.146Y-60.140Z-2.573
X-18.376Y-59.741Z-2.548
X-19.258Y-59.454Z-2.547
X-20.545Y-59.050Z-2.582
X-21.558Y-58.737Z-2.634
X-23.128Y-58.265Z-2.770
X-23.500Y-58.165Z-2.820
X-24.108Y-58.044Z-2.941
X-24.852Y-57.963Z-3.048
X-25.571Y-57.953
X-26.002Y-57.974
Z12.700
G0X-7.745Y-144.586
G1Z-1.700F2032.0
X-6.887Y-144.419Z-2.571F4064.0
X-6.913Y-143.610Z-2.569
X-6.947Y-139.030Z-2.603
X-6.994Y-129.353Z-2.650
X-7.016Y-119.621Z-2.672
X-7.021Y-104.929Z-2.677
X-7.129Y-80.811Z-2.813
X-7.155Y-71.011Z-2.886
X-7.182Y-65.959Z-2.956
X-7.168Y-65.552Z-2.974
X-7.133Y-65.125Z-3.015
X-7.080Y-64.650Z-3.107
X-7.054Y-64.439Z-3.167
X-6.918Y-63.307Z-3.175
X-7.319Y-63.036
X-7.741Y-62.783
X-8.324Y-62.485Z-3.008
X-8.912Y-62.239Z-2.851
X-9.559Y-62.034Z-2.747
X-9.941Y-61.939Z-2.720
X-10.871Y-61.740Z-2.685
X-12.577Y-61.339Z-2.629
X-13.036Y-61.237Z-2.624
X-13.881Y-61.062Z-2.644
X-14.927Y-60.803Z-2.639
X-15.997Y-60.498Z-2.612
X-17.146Y-60.140Z-2.573
X-18.376Y-59.741Z-2.548
X-19.258Y-59.454Z-2.547
X-20.545Y-59.050Z-2.582
X-21.558Y-58.737Z-2.634
X-23.128Y-58.265Z-2.770
X-23.500Y-58.165Z-2.820
X-24.108Y-58.044Z-2.941
X-24.852Y-57.963Z-3.169
X-25.571Y-57.953Z-3.175
X-26.002Y-57.974
Z12.700
G0X-37.228Y-51.325
G1Z-1.016F2032.0
X-37.464Y-51.752F4064.0
X-37.668Y-52.177
X-37.906Y-52.785
X-38.072Y-53.361
X-38.159Y-53.789
X-38.221Y-54.287
X-38.250Y-54.852
X-38.316Y-60.826
X-38.357Y-69.237
X-38.361Y-99.156
X-38.360Y-99.430
X-38.337Y-99.861
X-38.257Y-100.664
X-38.087Y-101.640
X-37.827Y-102.652
X-37.604Y-103.353
X-37.288Y-104.207
X-37.041Y-104.808
X-36.697Y-105.575
X-36.264Y-106.448
X-35.983Y-106.956
X-35.685Y-107.464
X-35.481Y-107.766
X-35.164Y-108.157
X-34.803Y-108.516
X-34.370Y-108.858
X-33.885Y-109.156
X-33.352Y-109.405
X-33.187Y-109.453
X-33.017Y-109.483
X-32.835Y-109.497
X-32.653Y-109.493
X-32.309Y-109.433
X-32.154Y-109.380
X-31.983Y-109.298
X-31.872Y-109.230
X-31.427Y-108.875
X-31.135Y-108.605
X-30.773Y-108.211
X-30.396Y-107.730
X-30.118Y-107.307
X-29.793Y-106.727
X-29.362Y-105.895
X-29.028Y-105.177
X-28.719Y-104.448
X-28.319Y-103.352
X-28.074Y-102.567
X-27.780Y-101.409
X-27.623Y-100.614
X-27.501Y-99.842
X-27.374Y-98.645
X-27.322Y-97.391
X-27.339Y-93.690
X-27.326Y-91.009
X-27.301Y-88.825
X-27.188Y-82.921
X-27.084Y-75.977
X-27.047Y-71.358
X-27.037Y-62.841
X-26.999Y-62.014
X-26.946Y-61.355
X-26.880Y-60.716
X-26.790Y-60.150
X-26.685Y-59.688
X-26.532Y-59.174
X-26.378Y-58.767
X-26.002Y-57.974
X-26.427Y-57.405
X-26.751Y-57.028
X-27.055Y-56.712
X-27.557Y-56.261
X-27.880Y-56.013
X-28.105Y-55.857
X-28.639Y-55.532
X-29.252Y-55.202
X-30.404Y-54.526
X-31.869Y-53.605
X-32.976Y-52.905
X-33.900Y-52.336
X-34.246Y-52.140
X-34.759Y-51.891
X-35.127Y-51.747
X-35.681Y-51.574
X-36.096Y-51.478
X-36.480Y-51.408
X-37.228Y-51.325
X-37.601Y-50.586
X-37.911Y-50.032
X-38.040Y-49.818
X-38.346Y-49.346
X-38.675Y-48.886
X-38.995Y-48.481
X-39.444Y-47.975
X-39.840Y-47.578
X-40.776Y-46.699
X-42.190Y-45.345
X-42.894Y-44.650
X-43.962Y-43.548
X-44.700Y-42.757
X-45.380Y-42.004
X-46.545Y-40.625
X-47.905Y-38.918
X-48.784Y-37.755
X-49.349Y-36.975
X-50.441Y-35.398
X-51.403Y-33.906
X-52.336Y-32.361
X-53.383Y-30.499
X-54.367Y-28.606
X-54.993Y-27.312
X-55.402Y-26.421
X-56.150Y-24.687
X-56.938Y-22.676
X-57.470Y-21.187
X-58.024Y-19.507
X-58.611Y-17.534
X-58.927Y-16.362
X-59.247Y-15.080
X-59.671Y-13.198
X-60.059Y-11.218
X-60.273Y-9.956
X-60.472Y-8.616
X-60.690Y-6.784
X-60.816Y-5.258
X-60.915Y-3.450
X-60.995Y-1.435
X-61.030Y0.230
X-61.028Y1.931
X-60.968Y3.874
X-60.885Y5.119
X-60.723Y6.937
X-60.579Y8.200
X-60.307Y10.129
X-60.031Y11.741
X-59.796Y12.952
X-59.381Y14.821
X-58.918Y16.640
X-58.633Y17.657
X-57.922Y19.974
X-57.471Y21.325
X-56.912Y22.855
X-56.245Y24.504
X-56.036Y24.949
X-55.906Y25.198
X-55.605Y25.700
X-55.434Y26.029
X-55.305Y26.327
X-55.195Y26.634
X-55.104Y26.951
X-55.026Y27.298
X-54.956Y27.458
X-54.413Y28.573
X-53.962Y29.447
X-53.389Y30.515
X-52.499Y32.087
X-51.753Y33.334
X-50.938Y34.631
X-50.284Y35.626
X-49.277Y37.079
X-48.175Y38.572
X-47.054Y40.000
X-46.039Y41.228
X-44.865Y42.529
X-43.703Y43.779
X-43.204Y44.328
X-42.708Y44.891
X-42.870Y45.030
Z12.700
G0X-37.228Y-51.325
G1Z-2.032F2032.0
X-37.464Y-51.752F4064.0
X-37.668Y-52.177
X-37.906Y-52.785
X-38.072Y-53.361
X-38.159Y-53.789
X-38.221Y-54.287
X-38.250Y-54.852
X-38.316Y-60.826
X-38.357Y-69.237
X-38.361Y-99.156
X-38.360Y-99.430
X-38.337Y-99.861
X-38.257Y-100.664
X-38.087Y-101.640
X-37.827Y-102.652
X-37.604Y-103.353
X-37.288Y-104.207
X-37.041Y-104.808
X-36.697Y-105.575
X-36.264Y-106.448
X-35.983Y-106.956
X-35.685Y-107.464
X-35.481Y-107.766
X-35.164Y-108.157
X-34.803Y-108.516
X-34.370Y-108.858
X-33.885Y-109.156
X-33.352Y-109.405
X-33.187Y-109.453
X-33.017Y-109.483
X-32.835Y-109.497
X-32.653Y-109.493
X-32.309Y-109.433
X-32.154Y-109.380
X-31.983Y-109.298
X-31.872Y-109.230
X-31.427Y-108.875
X-31.135Y-108.605
X-30.773Y-108.211
X-30.396Y-107.730
X-30.118Y-107.307
X-29.793Y-106.727
X-29.362Y-105.895
X-29.028Y-105.177
X-28.719Y-104.448
X-28.319Y-103.352
X-28.074Y-102.567
X-27.780Y-101.409
X-27.623Y-100.614
X-27.501Y-99.842
X-27.374Y-98.645
X-27.322Y-97.391
X-27.339Y-93.690
X-27.326Y-91.009
X-27.301Y-88.825
X-27.188Y-82.921
X-27.084Y-75.977
X-27.047Y-71.358
X-27.037Y-62.841
X-26.999Y-62.014
X-26.946Y-61.355
X-26.880Y-60.716
X-26.790Y-60.150
X-26.685Y-59.688
X-26.532Y-59.174
X-26.378Y-58.767
X-26.002Y-57.974
X-26.427Y-57.405
X-26.751Y-57.028
X-27.055Y-56.712
X-27.557Y-56.261
X-27.880Y-56.013
X-28.105Y-55.857
X-28.639Y-55.532
X-29.252Y-55.202
X-30.404Y-54.526
X-31.869Y-53.605
X-32.976Y-52.905
X-33.900Y-52.336
X-34.246Y-52.140
X-34.759Y-51.891
X-35.127Y-51.747
X-35.681Y-51.574
X-36.096Y-51.478
X-36.480Y-51.408
X-37.228Y-51.325
X-37.601Y-50.586
X-37.911Y-50.032
X-38.040Y-49.818
X-38.346Y-49.346
X-38.675Y-48.886
X-38.995Y-48.481
X-39.444Y-47.975
X-39.840Y-47.578
X-40.776Y-46.699
X-42.190Y-45.345
X-42.894Y-44.650
X-43.962Y-43.548
X-44.700Y-42.757
X-45.380Y-42.004
X-46.545Y-40.625
X-47.905Y-38.918
X-48.784Y-37.755
X-49.349Y-36.975
X-50.441Y-35.398
X-51.403Y-33.906
X-52.336Y-32.361
X-53.383Y-30.499
X-54.367Y-28.606
X-54.993Y-27.312
X-55.402Y-26.421
X-56.150Y-24.687
X-56.938Y-22.676
X-57.470Y-21.187
X-58.024Y-19.507
X-58.611Y-17.534
X-58.927Y-16.362
X-59.247Y-15.080
X-59.671Y-13.198
X-60.059Y-11.218
X-60.273Y-9.956
X-60.472Y-8.616
X-60.690Y-6.784
X-60.816Y-5.258
X-60.915Y-3.450
X-60.995Y-1.435
X-61.030Y0.230
X-61.028Y1.931
X-60.968Y3.874
X-60.885Y5.119
X-60.723Y6.937
X-60.579Y8.200
X-60.307Y10.129
X-60.031Y11.741
X-59.796Y12.952
X-59.381Y14.821
X-58.918Y16.640
X-58.633Y17.657
X-57.922Y19.974
X-57.471Y21.325
X-56.912Y22.855
X-56.245Y24.504
X-56.036Y24.949
X-55.906Y25.198
X-55.605Y25.700
X-55.434Y26.029
X-55.305Y26.327
X-55.195Y26.634
X-55.104Y26.951
X-55.026Y27.298
X-54.956Y27.458
X-54.413Y28.573
X-53.962Y29.447
X-53.389Y30.515
X-52.499Y32.087
X-51.753Y33.334
X-50.938Y34.631
X-50.284Y35.626
X-49.277Y37.079
X-48.175Y38.572
X-47.054Y40.000
X-46.039Y41.228
X-44.865Y42.529
X-43.703Y43.779
X-43.204Y44.328
X-42.708Y44.891
X-42.870Y45.030
Z12.700
G0X-37.228Y-51.325
G1Z-3.048F2032.0
X-37.464Y-51.752F4064.0
X-37.668Y-52.177
X-37.906Y-52.785
X-38.072Y-53.361Z-2.969
X-38.159Y-53.789Z-2.881
X-38.221Y-54.287Z-2.820
X-38.250Y-54.852Z-2.791
X-38.316Y-60.826Z-2.724
X-38.357Y-69.237Z-2.683
X-38.361Y-99.156Z-2.675
X-38.360Y-99.430
X-38.337Y-99.861Z-2.656
X-38.257Y-100.664Z-2.606
X-38.087Y-101.640Z-2.538
X-37.827Y-102.652Z-2.507
X-37.604Y-103.353Z-2.505
X-37.288Y-104.207Z-2.520
X-37.041Y-104.808Z-2.542
X-36.697Y-105.575Z-2.582
X-36.264Y-106.448Z-2.625
X-35.983Y-106.956Z-2.633
X-35.685Y-107.464Z-2.625
X-35.481Y-107.766
X-35.164Y-108.157Z-2.648
X-34.803Y-108.516Z-2.699
X-34.370Y-108.858Z-2.785
X-33.885Y-109.156Z-2.905
X-33.352Y-109.405Z-3.048
X-33.187Y-109.453
X-33.017Y-109.483
X-32.835Y-109.497
X-32.653Y-109.493
X-32.309Y-109.433
X-32.154Y-109.380
X-31.983Y-109.298
X-31.872Y-109.230
X-31.427Y-108.875Z-2.937
X-31.135Y-108.605Z-2.855
X-30.773Y-108.211Z-2.771
X-30.396Y-107.730Z-2.712
X-30.118Y-107.307Z-2.695
X-29.793Y-106.727Z-2.692
X-29.362Y-105.895Z-2.687
X-29.028Y-105.177Z-2.678
X-28.719Y-104.448Z-2.663
X-28.319Y-103.352Z-2.639
X-28.074Y-102.567Z-2.617
X-27.780Y-101.409Z-2.583
X-27.623Y-100.614Z-2.555
X-27.501Y-99.842Z-2.534
X-27.374Y-98.645Z-2.494
X-27.322Y-97.391Z-2.455
X-27.339Y-93.690Z-2.394
X-27.326Y-91.009Z-2.384
X-27.301Y-88.825Z-2.399
X-27.188Y-82.921Z-2.486
X-27.084Y-75.977Z-2.582
X-27.047Y-71.358Z-2.617
X-27.037Y-62.841Z-2.627
X-26.999Y-62.014Z-2.664
X-26.946Y-61.355Z-2.717
X-26.880Y-60.716Z-2.783
X-26.790Y-60.150Z-2.874
X-26.685Y-59.688Z-2.979
X-26.532Y-59.174Z-3.048
X-26.378Y-58.767
X-26.002Y-57.974
X-26.427Y-57.405
X-26.751Y-57.028
X-27.055Y-56.712Z-2.975
X-27.557Y-56.261Z-2.802
X-27.880Y-56.013Z-2.728
X-28.105Y-55.857Z-2.697
X-28.639Y-55.532Z-2.665
X-29.252Y-55.202Z-2.670
X-30.404Y-54.526Z-2.659
X-31.869Y-53.605Z-2.646
X-32.976Y-52.905Z-2.662
X-33.900Y-52.336Z-2.705
X-34.246Y-52.140Z-2.735
X-34.759Y-51.891Z-2.824
X-35.127Y-51.747Z-2.918
X-35.681Y-51.574Z-3.048
X-36.096Y-51.478
X-36.480Y-51.408
X-37.228Y-51.325
X-37.601Y-50.586
X-37.911Y-50.032
X-38.040Y-49.818
X-38.346Y-49.346Z-2.936
X-38.675Y-48.886Z-2.788
X-38.995Y-48.481Z-2.681
X-39.444Y-47.975Z-2.582
X-39.840Y-47.578Z-2.541
X-40.776Y-46.699Z-2.508
X-42.190Y-45.345Z-2.505
X-42.894Y-44.650Z-2.519
X-43.962Y-43.548Z-2.558
X-44.700Y-42.757Z-2.578
X-45.380Y-42.004Z-2.584
X-46.545Y-40.625Z-2.571
X-47.905Y-38.918Z-2.552
X-48.784Y-37.755Z-2.539
X-49.349Y-36.975Z-2.530
X-50.441Y-35.398Z-2.524
X-51.403Y-33.906Z-2.521
X-52.336Y-32.361Z-2.526
X-53.383Y-30.499Z-2.527
X-54.367Y-28.606Z-2.523
X-54.993Y-27.312Z-2.518
X-55.402Y-26.421Z-2.510
X-56.150Y-24.687Z-2.503
X-56.938Y-22.676Z-2.488
X-57.470Y-21.187Z-2.473
X-58.024Y-19.507Z-2.466
X-58.611Y-17.534Z-2.459
X-58.927Y-16.362Z-2.457
X-59.247Y-15.080Z-2.456
X-59.671Y-13.198Z-2.452
X-60.059Y-11.218Z-2.444
X-60.273Y-9.956Z-2.440
X-60.472Y-8.616Z-2.439
X-60.690Y-6.784Z-2.446
X-60.816Y-5.258Z-2.444
X-60.915Y-3.450Z-2.460
X-60.995Y-1.435Z-2.465
X-61.030Y0.230Z-2.464
X-61.028Y1.931Z-2.472
X-60.968Y3.874Z-2.495
X-60.885Y5.119Z-2.505
X-60.723Y6.937Z-2.512
X-60.579Y8.200Z-2.515
X-60.307Y10.129Z-2.519
X-60.031Y11.741Z-2.525
X-59.796Y12.952Z-2.528
X-59.381Y14.821Z-2.535
X-58.918Y16.640Z-2.545
X-58.633Y17.657Z-2.553
X-57.922Y19.974Z-2.567
X-57.471Y21.325Z-2.569
X-56.912Y22.855Z-2.582
X-56.245Y24.504Z-2.592
X-56.036Y24.949Z-2.580
X-55.906Y25.198Z-2.562
X-55.605Y25.700Z-2.489
X-55.434Y26.029Z-2.472
X-55.305Y26.327Z-2.480
X-55.195Y26.634Z-2.510
X-55.104Y26.951Z-2.561
X-55.026Y27.298Z-2.641
X-54.956Y27.458Z-2.647
X-54.413Y28.573Z-2.646
X-53.962Y29.447Z-2.630
X-53.389Y30.515Z-2.622
X-52.499Y32.087Z-2.613
X-51.753Y33.334Z-2.612
X-50.938Y34.631Z-2.611
X-50.284Y35.626Z-2.614
X-49.277Y37.079Z-2.620
X-48.175Y38.572Z-2.630
X-47.054Y40.000Z-2.639
X-46.039Y41.228Z-2.651
X-44.865Y42.529Z-2.641
X-43.703Y43.779Z-2.656
X-43.204Y44.328Z-2.687
X-42.708Y44.891Z-2.739
X-42.870Y45.030Z-2.526
Z12.700
G0X-37.228Y-51.325
G1Z-3.175F2032.0
X-37.464Y-51.752F4064.0
X-37.668Y-52.177
X-37.906Y-52.785Z-3.134
X-38.072Y-53.361Z-2.969
X-38.159Y-53.789Z-2.881
X-38.221Y-54.287Z-2.820
X-38.250Y-54.852Z-2.791
X-38.316Y-60.826Z-2.724
X-38.357Y-69.237Z-2.683
X-38.361Y-99.156Z-2.675
X-38.360Y-99.430
X-38.337Y-99.861Z-2.656
X-38.257Y-100.664Z-2.606
X-38.087Y-101.640Z-2.538
X-37.827Y-102.652Z-2.507
X-37.604Y-103.353Z-2.505
X-37.288Y-104.207Z-2.520
X-37.041Y-104.808Z-2.542
X-36.697Y-105.575Z-2.582
X-36.264Y-106.448Z-2.625
X-35.983Y-106.956Z-2.633
X-35.685Y-107.464Z-2.625
X-35.481Y-107.766
X-35.164Y-108.157Z-2.648
X-34.803Y-108.516Z-2.699
X-34.370Y-108.858Z-2.785
X-33.885Y-109.156Z-2.905
X-33.352Y-109.405Z-3.061
X-33.187Y-109.453Z-3.098
X-33.017Y-109.483Z-3.127
X-32.835Y-109.497Z-3.148
X-32.653Y-109.493Z-3.159
X-32.309Y-109.433Z-3.157
X-32.154Y-109.380Z-3.143
X-31.983Y-109.298Z-3.113
X-31.872Y-109.230Z-3.082
X-31.427Y-108.875Z-2.937
X-31.135Y-108.605Z-2.855
X-30.773Y-108.211Z-2.771
X-30.396Y-107.730Z-2.712
X-30.118Y-107.307Z-2.695
X-29.793Y-106.727Z-2.692
X-29.362Y-105.895Z-2.687
X-29.028Y-105.177Z-2.678
X-28.719Y-104.448Z-2.663
X-28.319Y-103.352Z-2.639
X-28.074Y-102.567Z-2.617
X-27.780Y-101.409Z-2.583
X-27.623Y-100.614Z-2.555
X-27.501Y-99.842Z-2.534
X-27.374Y-98.645Z-2.494
X-27.322Y-97.391Z-2.455
X-27.339Y-93.690Z-2.394
X-27.326Y-91.009Z-2.384
X-27.301Y-88.825Z-2.399
X-27.188Y-82.921Z-2.486
X-27.084Y-75.977Z-2.582
X-27.047Y-71.358Z-2.617
X-27.037Y-62.841Z-2.627
X-26.999Y-62.014Z-2.664
X-26.946Y-61.355Z-2.717
X-26.880Y-60.716Z-2.783
X-26.790Y-60.150Z-2.874
X-26.685Y-59.688Z-2.979
X-26.532Y-59.174Z-3.132
X-26.378Y-58.767Z-3.175
X-26.002Y-57.974
X-26.427Y-57.405
X-26.751Y-57.028Z-3.121
X-27.055Y-56.712Z-2.975
X-27.557Y-56.261Z-2.802
X-27.880Y-56.013Z-2.728
X-28.105Y-55.857Z-2.697
X-28.639Y-55.532Z-2.665
X-29.252Y-55.202Z-2.670
X-30.404Y-54.526Z-2.659
X-31.869Y-53.605Z-2.646
X-32.976Y-52.905Z-2.662
X-33.900Y-52.336Z-2.705
X-34.246Y-52.140Z-2.735
X-34.759Y-51.891Z-2.824
X-35.127Y-51.747Z-2.918
X-35.681Y-51.574Z-3.099
X-36.096Y-51.478Z-3.175
X-36.480Y-51.408
X-37.228Y-51.325
X-37.601Y-50.586
X-37.911Y-50.032
X-38.040Y-49.818Z-3.116
X-38.346Y-49.346Z-2.936
X-38.675Y-48.886Z-2.788
X-38.995Y-48.481Z-2.681
X-39.444Y-47.975Z-2.582
X-39.840Y-47.578Z-2.541
X-40.776Y-46.699Z-2.508
X-42.190Y-45.345Z-2.505
X-42.894Y-44.650Z-2.519
X-43.962Y-43.548Z-2.558
X-44.700Y-42.757Z-2.578
X-45.380Y-42.004Z-2.584
X-46.545Y-40.625Z-2.571
X-47.905Y-38.918Z-2.552
X-48.784Y-37.755Z-2.539
X-49.349Y-36.975Z-2.530
X-50.441Y-35.398Z-2.524
X-51.403Y-33.906Z-2.521
X-52.336Y-32.361Z-2.526
X-53.383Y-30.499Z-2.527
X-54.367Y-28.606Z-2.523
X-54.993Y-27.312Z-2.518
X-55.402Y-26.421Z-2.510
X-56.150Y-24.687Z-2.503
X-56.938Y-22.676Z-2.488
X-57.470Y-21.187Z-2.473
X-58.024Y-19.507Z-2.466
X-58.611Y-17.534Z-2.459
X-58.927Y-16.362Z-2.457
X-59.247Y-15.080Z-2.456
X-59.671Y-13.198Z-2.452
X-60.059Y-11.218Z-2.444
X-60.273Y-9.956Z-2.440
X-60.472Y-8.616Z-2.439
X-60.690Y-6.784Z-2.446
X-60.816Y-5.258Z-2.444
X-60.915Y-3.450Z-2.460
X-60.995Y-1.435Z-2.465
X-61.030Y0.230Z-2.464
X-61.028Y1.931Z-2.472
X-60.968Y3.874Z-2.495
X-60.885Y5.119Z-2.505
X-60.723Y6.937Z-2.512
X-60.579Y8.200Z-2.515
X-60.307Y10.129Z-2.519
X-60.031Y11.741Z-2.525
X-59.796Y12.952Z-2.528
X-59.381Y14.821Z-2.535
X-58.918Y16.640Z-2.545
X-58.633Y17.657Z-2.553
X-57.922Y19.974Z-2.567
X-57.471Y21.325Z-2.569
X-56.912Y22.855Z-2.582
X-56.245Y24.504Z-2.592
X-56.036Y24.949Z-2.580
X-55.906Y25.198Z-2.562
X-55.605Y25.700Z-2.489
X-55.434Y26.029Z-2.472
X-55.305Y26.327Z-2.480
X-55.195Y26.634Z-2.510
X-55.104Y26.951Z-2.561
X-55.026Y27.298Z-2.641
X-54.956Y27.458Z-2.647
X-54.413Y28.573Z-2.646
X-53.962Y29.447Z-2.630
X-53.389Y30.515Z-2.622
X-52.499Y32.087Z-2.613
X-51.753Y33.334Z-2.612
X-50.938Y34.631Z-2.611
X-50.284Y35.626Z-2.614
X-49.277Y37.079Z-2.620
X-48.175Y38.572Z-2.630
X-47.054Y40.000Z-2.639
X-46.039Y41.228Z-2.651
X-44.865Y42.529Z-2.641
X-43.703Y43.779Z-2.656
X-43.204Y44.328Z-2.687
X-42.708Y44.891Z-2.739
X-42.870Y45.030Z-2.526
Z12.700
G0X-6.918Y-63.307
G1Z-1.016F2032.0
X-6.165Y-63.040F4064.0
X-5.652Y-62.899
X-5.388Y-62.841
X-4.846Y-62.751
X-4.498Y-62.713
X-4.206Y-62.693
X-3.711Y-62.683
X-2.793Y-62.695
X0.564Y-62.683
X0.973Y-62.694
X1.661Y-62.758
X2.370Y-62.887
X3.021Y-63.065
X3.721Y-63.314
X4.354Y-63.591
X4.850Y-63.282
X5.254Y-63.056
X5.606Y-62.882
X5.827Y-62.782
X6.365Y-62.570
X6.551Y-62.508
X7.128Y-62.344
X7.569Y-62.249
X8.561Y-62.085
X10.302Y-61.755
X11.899Y-61.430
X13.473Y-61.078
X14.386Y-60.858
X15.818Y-60.481
X17.867Y-59.866
X18.589Y-59.658
X19.288Y-59.470
X20.595Y-59.140
X21.131Y-59.032
X21.738Y-58.950
X22.387Y-58.914
X22.879Y-58.921
X23.422Y-58.958
X24.005Y-58.296
X24.475Y-57.838
X25.060Y-57.353
X25.556Y-57.008
X25.872Y-56.810
X26.156Y-56.649
X27.016Y-56.191
X28.423Y-55.431
X29.223Y-54.998
X30.532Y-54.310
X31.519Y-53.807
X32.117Y-53.538
X32.653Y-53.354
X33.372Y-53.167
X34.025Y-53.061
X34.762Y-52.995
X35.305Y-52.013
X35.688Y-51.399
X35.974Y-50.991
X36.472Y-50.368
X36.896Y-49.912
X37.396Y-49.451
X38.903Y-48.163
X39.891Y-47.306
X41.068Y-46.284
X41.644Y-45.753
X42.297Y-45.110
X43.084Y-44.281
X44.123Y-43.125
X44.985Y-42.144
X46.666Y-40.150
X47.481Y-39.129
X48.174Y-38.225
X49.385Y-36.566
X50.473Y-34.971
X51.264Y-33.736
X51.901Y-32.694
X52.962Y-30.845
X53.597Y-29.661
X54.383Y-28.096
X55.308Y-26.093
X55.828Y-24.873
X56.320Y-23.641
X57.062Y-21.615
X57.423Y-20.535
X57.884Y-19.053
X58.354Y-17.390
X58.577Y-16.525
X58.841Y-15.434
X59.184Y-13.872
X59.369Y-12.931
X59.726Y-10.815
X59.984Y-9.044
X60.179Y-7.455
X60.374Y-5.393
X60.500Y-3.317
X60.540Y-1.914
X60.539Y-0.561
X60.529Y-0.046
X60.517Y1.450
X60.460Y3.443
X60.374Y5.019
X60.285Y6.172
X60.176Y7.288
X60.030Y8.465
X59.817Y9.809
X59.590Y11.096
X59.320Y12.472
X58.971Y14.066
X58.374Y16.458
X57.984Y17.848
X57.629Y19.015
X56.964Y21.011
X56.488Y22.290
X56.012Y23.506
X55.474Y24.812
X54.635Y26.709
X54.045Y27.955
X52.993Y30.022
X52.139Y31.576
X51.303Y33.001
X50.271Y34.631
X49.350Y36.009
X48.207Y37.625
X47.336Y38.789
X46.170Y40.266
X45.178Y41.451
X44.544Y42.179
X43.838Y42.955
X42.478Y44.378
X41.097Y45.721
X40.372Y46.386
X39.598Y47.071
X38.081Y48.342
X37.712Y48.668
X37.386Y48.986
X37.137Y49.248
X36.719Y49.735
X36.512Y49.997
X36.198Y50.433
X35.706Y51.204
X35.171Y52.186
X34.741Y52.246
X34.221Y52.345
X33.679Y52.484
X33.239Y52.626
X32.761Y52.810
X31.822Y53.229
X31.348Y53.469
X30.756Y53.793
X30.093Y54.193
X29.381Y54.637
X28.105Y55.396
X27.517Y55.714
X26.791Y56.049
X26.416Y56.256
X26.063Y56.479
X25.806Y56.659
X25.428Y56.954
X25.127Y57.223
X24.882Y57.464
X24.444Y57.944
X24.159Y58.296
X23.865Y58.704
Z12.700
G0X-6.918Y-63.307
G1Z-2.032F2032.0
X-6.165Y-63.040F4064.0
X-5.652Y-62.899
X-5.388Y-62.841
X-4.846Y-62.751
X-4.498Y-62.713
X-4.206Y-62.693
X-3.711Y-62.683
X-2.793Y-62.695
X0.564Y-62.683
X0.973Y-62.694
X1.661Y-62.758
X2.370Y-62.887
X3.021Y-63.065
X3.721Y-63.314
X4.354Y-63.591
X4.850Y-63.282
X5.254Y-63.056
X5.606Y-62.882
X5.827Y-62.782
X6.365Y-62.570
X6.551Y-62.508
X7.128Y-62.344
X7.569Y-62.249
X8.561Y-62.085
X10.302Y-61.755
X11.899Y-61.430
X13.473Y-61.078
X14.386Y-60.858
X15.818Y-60.481
X17.867Y-59.866
X18.589Y-59.658
X19.288Y-59.470
X20.595Y-59.140
X21.131Y-59.032
X21.738Y-58.950
X22.387Y-58.914
X22.879Y-58.921
X23.422Y-58.958
X24.005Y-58.296
X24.475Y-57.838
X25.060Y-57.353
X25.556Y-57.008
X25.872Y-56.810
X26.156Y-56.649
X27.016Y-56.191
X28.423Y-55.431
X29.223Y-54.998
X30.532Y-54.310
X31.519Y-53.807
X32.117Y-53.538
X32.653Y-53.354
X33.372Y-53.167
X34.025Y-53.061
X34.762Y-52.995
X35.305Y-52.013
X35.688Y-51.399
X35.974Y-50.991
X36.472Y-50.368
X36.896Y-49.912
X37.396Y-49.451
X38.903Y-48.163
X39.891Y-47.306
X41.068Y-46.284
X41.644Y-45.753
X42.297Y-45.110
X43.084Y-44.281
X44.123Y-43.125
X44.985Y-42.144
X46.666Y-40.150
X47.481Y-39.129
X48.174Y-38.225
X49.385Y-36.566
X50.473Y-34.971
X51.264Y-33.736
X51.901Y-32.694
X52.962Y-30.845
X53.597Y-29.661
X54.383Y-28.096
X55.308Y-26.093
X55.828Y-24.873
X56.320Y-23.641
X57.062Y-21.615
X57.423Y-20.535
X57.884Y-19.053
X58.354Y-17.390
X58.577Y-16.525
X58.841Y-15.434
X59.184Y-13.872
X59.369Y-12.931
X59.726Y-10.815
X59.984Y-9.044
X60.179Y-7.455
X60.374Y-5.393
X60.500Y-3.317
X60.540Y-1.914
X60.539Y-0.561
X60.529Y-0.046
X60.517Y1.450
X60.460Y3.443
X60.374Y5.019
X60.285Y6.172
X60.176Y7.288
X60.030Y8.465
X59.817Y9.809
X59.590Y11.096
X59.320Y12.472
X58.971Y14.066
X58.374Y16.458
X57.984Y17.848
X57.629Y19.015
X56.964Y21.011
X56.488Y22.290
X56.012Y23.506
X55.474Y24.812
X54.635Y26.709
X54.045Y27.955
X52.993Y30.022
X52.139Y31.576
X51.303Y33.001
X50.271Y34.631
X49.350Y36.009
X48.207Y37.625
X47.336Y38.789
X46.170Y40.266
X45.178Y41.451
X44.544Y42.179
X43.838Y42.955
X42.478Y44.378
X41.097Y45.721
X40.372Y46.386
X39.598Y47.071
X38.081Y48.342
X37.712Y48.668
X37.386Y48.986
X37.137Y49.248
X36.719Y49.735
X36.512Y49.997
X36.198Y50.433
X35.706Y51.204
X35.171Y52.186
X34.741Y52.246
X34.221Y52.345
X33.679Y52.484
X33.239Y52.626
X32.761Y52.810
X31.822Y53.229
X31.348Y53.469
X30.756Y53.793
X30.093Y54.193
X29.381Y54.637
X28.105Y55.396
X27.517Y55.714
X26.791Y56.049
X26.416Y56.256
X26.063Y56.479
X25.806Y56.659
X25.428Y56.954
X25.127Y57.223
X24.882Y57.464
X24.444Y57.944
X24.159Y58.296
X23.865Y58.704
Z12.700
G0X-6.918Y-63.307
G1Z-3.048F2032.0
X-6.165Y-63.040F4064.0
X-5.652Y-62.899
X-5.388Y-62.841
X-4.846Y-62.751Z-2.922
X-4.498Y-62.713Z-2.861
X-4.206Y-62.693Z-2.826
X-3.711Y-62.683Z-2.793
X-2.793Y-62.695Z-2.777
X0.564Y-62.683Z-2.789
X0.973Y-62.694Z-2.801
X1.661Y-62.758Z-2.865
X2.370Y-62.887Z-2.996
X3.021Y-63.065Z-3.048
X3.721Y-63.314
X4.354Y-63.591
X4.850Y-63.282
X5.254Y-63.056
X5.606Y-62.882
X5.827Y-62.782Z-3.007
X6.365Y-62.570Z-2.841
X6.551Y-62.508Z-2.800
X7.128Y-62.344Z-2.699
X7.569Y-62.249Z-2.662
X8.561Y-62.085Z-2.649
X10.302Y-61.755Z-2.624
X11.899Y-61.430Z-2.623
X13.473Y-61.078Z-2.635
X14.386Y-60.858Z-2.646
X15.818Y-60.481Z-2.660
X17.867Y-59.866Z-2.675
X18.589Y-59.658Z-2.704
X19.288Y-59.470Z-2.757
X20.595Y-59.140Z-2.899
X21.131Y-59.032Z-2.986
X21.738Y-58.950Z-3.048
X22.387Y-58.914
X22.879Y-58.921
X23.422Y-58.958
X24.005Y-58.296
X24.475Y-57.838
X25.060Y-57.353Z-2.993
X25.556Y-57.008Z-2.890
X25.872Y-56.810Z-2.854
X26.156Y-56.649Z-2.835
X27.016Y-56.191Z-2.808
X28.423Y-55.431Z-2.797
X29.223Y-54.998Z-2.811
X30.532Y-54.310Z-2.873
X31.519Y-53.807Z-2.952
X32.117Y-53.538Z-3.042
X32.653Y-53.354Z-3.048
X33.372Y-53.167
X34.025Y-53.061
X34.762Y-52.995
X35.305Y-52.013
X35.688Y-51.399
X35.974Y-50.991
X36.472Y-50.368Z-2.933
X36.896Y-49.912Z-2.836
X37.396Y-49.451Z-2.784
X38.903Y-48.163Z-2.757
X39.891Y-47.306Z-2.765
X41.068Y-46.284Z-2.814
X41.644Y-45.753Z-2.830
X42.297Y-45.110Z-2.827
X43.084Y-44.281Z-2.807
X44.123Y-43.125Z-2.768
X44.985Y-42.144Z-2.749
X46.666Y-40.150Z-2.737
X47.481Y-39.129Z-2.734
X48.174Y-38.225
X49.385Y-36.566Z-2.730
X50.473Y-34.971Z-2.728
X51.264Y-33.736Z-2.731
X51.901Y-32.694Z-2.732
X52.962Y-30.845Z-2.739
X53.597Y-29.661Z-2.742
X54.383Y-28.096Z-2.748
X55.308Y-26.093Z-2.761
X55.828Y-24.873Z-2.768
X56.320Y-23.641Z-2.776
X57.062Y-21.615Z-2.787
X57.423Y-20.535Z-2.796
X57.884Y-19.053Z-2.804
X58.354Y-17.390Z-2.818
X58.577Y-16.525Z-2.823
X58.841Y-15.434Z-2.832
X59.184Y-13.872Z-2.842
X59.369Y-12.931Z-2.847
X59.726Y-10.815Z-2.875
X59.984Y-9.044Z-2.881
X60.179Y-7.455Z-2.886
X60.374Y-5.393Z-2.893
X60.500Y-3.317Z-2.910
X60.540Y-1.914Z-2.933
X60.539Y-0.561Z-2.959
X60.529Y-0.046Z-2.970
X60.517Y1.450Z-2.961
X60.460Y3.443Z-2.931
X60.374Y5.019Z-2.898
X60.285Y6.172Z-2.875
X60.176Y7.288Z-2.856
X60.030Y8.465Z-2.838
X59.817Y9.809Z-2.833
X59.590Y11.096Z-2.829
X59.320Y12.472Z-2.826
X58.971Y14.066Z-2.824
X58.374Y16.458Z-2.815
X57.984Y17.848Z-2.813
X57.629Y19.015Z-2.808
X56.964Y21.011Z-2.799
X56.488Y22.290Z-2.783
X56.012Y23.506Z-2.773
X55.474Y24.812Z-2.768
X54.635Y26.709Z-2.767
X54.045Y27.955Z-2.769
X52.993Y30.022Z-2.774
X52.139Y31.576
X51.303Y33.001Z-2.771
X50.271Y34.631Z-2.755
X49.350Y36.009Z-2.748
X48.207Y37.625Z-2.745
X47.336Y38.789Z-2.747
X46.170Y40.266Z-2.751
X45.178Y41.451
X44.544Y42.179Z-2.754
X43.838Y42.955Z-2.752
X42.478Y44.378Z-2.750
X41.097Y45.721Z-2.741
X40.372Y46.386Z-2.732
X39.598Y47.071Z-2.722
X38.081Y48.342Z-2.698
X37.712Y48.668Z-2.718
X37.386Y48.986Z-2.759
X37.137Y49.248Z-2.810
X36.719Y49.735Z-2.933
X36.512Y49.997Z-3.015
X36.198Y50.433Z-3.048
X35.706Y51.204
X35.171Y52.186
X34.741Y52.246
X34.221Y52.345
X33.679Y52.484
X33.239Y52.626
X32.761Y52.810
X31.822Y53.229Z-3.000
X31.348Y53.469Z-2.951
X30.756Y53.793Z-2.925
X30.093Y54.193Z-2.928
X29.381Y54.637Z-2.961
X28.105Y55.396Z-3.009
X27.517Y55.714Z-3.011
X26.791Y56.049Z-2.978
X26.416Y56.256Z-2.993
X26.063Y56.479Z-3.033
X25.806Y56.659Z-3.048
X25.428Y56.954
X25.127Y57.223
X24.882Y57.464
X24.444Y57.944
X24.159Y58.296
X23.865Y58.704
Z12.700
G0X-6.918Y-63.307
G1Z-3.175F2032.0
X-6.165Y-63.040F4064.0
X-5.652Y-62.899Z-3.127
X-5.388Y-62.841Z-3.048
X-4.846Y-62.751Z-2.922
X-4.498Y-62.713Z-2.861
X-4.206Y-62.693Z-2.826
X-3.711Y-62.683Z-2.793
X-2.793Y-62.695Z-2.777
X0.564Y-62.683Z-2.789
X0.973Y-62.694Z-2.801
X1.661Y-62.758Z-2.865
X2.370Y-62.887Z-2.996
X3.021Y-63.065Z-3.175
X3.721Y-63.314
X4.354Y-63.591
X4.850Y-63.282
X5.254Y-63.056
X5.606Y-62.882Z-3.089
X5.827Y-62.782Z-3.007
X6.365Y-62.570Z-2.841
X6.551Y-62.508Z-2.800
X7.128Y-62.344Z-2.699
X7.569Y-62.249Z-2.662
X8.561Y-62.085Z-2.649
X10.302Y-61.755Z-2.624
X11.899Y-61.430Z-2.623
X13.473Y-61.078Z-2.635
X14.386Y-60.858Z-2.646
X15.818Y-60.481Z-2.660
X17.867Y-59.866Z-2.675
X18.589Y-59.658Z-2.704
X19.288Y-59.470Z-2.757
X20.595Y-59.140Z-2.899
X21.131Y-59.032Z-2.986
X21.738Y-58.950Z-3.136
X22.387Y-58.914Z-3.175
X22.879Y-58.921
X23.422Y-58.958
X24.005Y-58.296
X24.475Y-57.838
X25.060Y-57.353Z-2.993
X25.556Y-57.008Z-2.890
X25.872Y-56.810Z-2.854
X26.156Y-56.649Z-2.835
X27.016Y-56.191Z-2.808
X28.423Y-55.431Z-2.797
X29.223Y-54.998Z-2.811
X30.532Y-54.310Z-2.873
X31.519Y-53.807Z-2.952
X32.117Y-53.538Z-3.042
X32.653Y-53.354Z-3.172
X33.372Y-53.167Z-3.175
X34.025Y-53.061
X34.762Y-52.995
X35.305Y-52.013
X35.688Y-51.399
X35.974Y-50.991Z-3.129
X36.472Y-50.368Z-2.933
X36.896Y-49.912Z-2.836
X37.396Y-49.451Z-2.784
X38.903Y-48.163Z-2.757
X39.891Y-47.306Z-2.765
X41.068Y-46.284Z-2.814
X41.644Y-45.753Z-2.830
X42.297Y-45.110Z-2.827
X43.084Y-44.281Z-2.807
X44.123Y-43.125Z-2.768
X44.985Y-42.144Z-2.749
X46.666Y-40.150Z-2.737
X47.481Y-39.129Z-2.734
X48.174Y-38.225
X49.385Y-36.566Z-2.730
X50.473Y-34.971Z-2.728
X51.264Y-33.736Z-2.731
X51.901Y-32.694Z-2.732
X52.962Y-30.845Z-2.739
X53.597Y-29.661Z-2.742
X54.383Y-28.096Z-2.748
X55.308Y-26.093Z-2.761
X55.828Y-24.873Z-2.768
X56.320Y-23.641Z-2.776
X57.062Y-21.615Z-2.787
X57.423Y-20.535Z-2.796
X57.884Y-19.053Z-2.804
X58.354Y-17.390Z-2.818
X58.577Y-16.525Z-2.823
X58.841Y-15.434Z-2.832
X59.184Y-13.872Z-2.842
X59.369Y-12.931Z-2.847
X59.726Y-10.815Z-2.875
X59.984Y-9.044Z-2.881
X60.179Y-7.455Z-2.886
X60.374Y-5.393Z-2.893
X60.500Y-3.317Z-2.910
X60.540Y-1.914Z-2.933
X60.539Y-0.561Z-2.959
X60.529Y-0.046Z-2.970
X60.517Y1.450Z-2.961
X60.460Y3.443Z-2.931
X60.374Y5.019Z-2.898
X60.285Y6.172Z-2.875
X60.176Y7.288Z-2.856
X60.030Y8.465Z-2.838
X59.817Y9.809Z-2.833
X59.590Y11.096Z-2.829
X59.320Y12.472Z-2.826
X58.971Y14.066Z-2.824
X58.374Y16.458Z-2.815
X57.984Y17.848Z-2.813
X57.629Y19.015Z-2.808
X56.964Y21.011Z-2.799
X56.488Y22.290Z-2.783
X56.012Y23.506Z-2.773
X55.474Y24.812Z-2.768
X54.635Y26.709Z-2.767
X54.045Y27.955Z-2.769
X52.993Y30.022Z-2.774
X52.139Y31.576
X51.303Y33.001Z-2.771
X50.271Y34.631Z-2.755
X49.350Y36.009Z-2.748
X48.207Y37.625Z-2.745
X47.336Y38.789Z-2.747
X46.170Y40.266Z-2.751
X45.178Y41.451
X44.544Y42.179Z-2.754
X43.838Y42.955Z-2.752
X42.478Y44.378Z-2.750
X41.097Y45.721Z-2.741
X40.372Y46.386Z-2.732
X39.598Y47.071Z-2.722
X38.081Y48.342Z-2.698
X37.712Y48.668Z-2.718
X37.386Y48.986Z-2.759
X37.137Y49.248Z-2.810
X36.719Y49.735Z-2.933
X36.512Y49.997Z-3.015
X36.198Y50.433Z-3.172
X35.706Y51.204Z-3.175
X35.171Y52.186
X34.741Y52.246
X34.221Y52.345
X33.679Y52.484
X33.239Y52.626
X32.761Y52.810Z-3.147
X31.822Y53.229Z-3.000
X31.348Y53.469Z-2.951
X30.756Y53.793Z-2.925
X30.093Y54.193Z-2.928
X29.381Y54.637Z-2.961
X28.105Y55.396Z-3.009
X27.517Y55.714Z-3.011
X26.791Y56.049Z-2.978
X26.416Y56.256Z-2.993
X26.063Y56.479Z-3.033
X25.806Y56.659Z-3.085
X25.428Y56.954Z-3.175
X25.127Y57.223
X24.882Y57.464
X24.444Y57.944
X24.159Y58.296
X23.865Y58.704
Z12.700
M05
M02
